!!!!SEGMENT: pl-wumfc--n68232--006_moniuszko-stanislaw--paria-wyciag-fortepianowy-akt-i-obraz-i-scena-i-chor-braminek.krn
!!!cenid: 18xx:4136
!!!COM: Moniuszko, Stanisław
!!!COM-rismID: pe30008351
!!!CDT: 1819/05/05-1872/06/04
!!!CNT: Polish
!!!GTL: Paria – wyciąg fortepianowy
!!!OTL: Akt I. Obraz I. Scena I. Chór Braminek
!!!OMV: 006
!!!PDT:
!!!SMS-siglum: PL-Wumfc
!!!AGN:
!!!SMS-shelfmark: N68232
!!!SMS-shelfwork: 001-006 G
!!!SMS-variant:
!!!SMS-altvar:
!!!NIFC-rismSourceID: 1001171381
!!!NIFC-rismChildID: 1001171381
!!!NIFC-islandoraID: pl-wumfc:7210
!!!URL-pdf-islandora: https://repozytorium.nifc.pl/islandora/object/pl-wumfc%3A7210/datastream/PDF/view
!!!URL-scan: https://polish.musicsources.pl/pl/lokalizacje/galeria/druki-muzyczne/12634/1 @EN{Scan on Polish Music Sources Website} @PL{Skany w portalu Dziedzictwo Muzyki Polskiej w otwartym dostępie}
!!!ONB-nifc: UWAGA: str. 22-25. Uwaga: proszę w pliku umieszczać obsadę, która występuje tylko w danej części.
!!!AIN: 1 alto 1 piano 2 soprn
!!!key: C
**kern	**kern	**fing	**dynam	**kern	**dynam	**kern	**text	**text	**text	**text	**dynam	**kern	**text	**text
*part4	*part4	*part4	*part4	*part3	*part3	*part2	*part2	*part2	*part2	*part2	*part2	*part1	*part1	*part1
*staff5	*staff4	*	*	*staff3	*	*staff2	*staff2	*staff2	*staff2	*staff2	*	*staff1	*staff1	*staff1
*I"Piano.	*I"Piano.	*	*	*I"[Alto]	*	*I"[Soprano]	*	*	*	*	*	*I"[Canto]	*	*
*I'pf	*I'pf	*	*	*I'A	*	*I'S	*	*	*	*	*	*I'S	*	*
*ICklav	*ICklav	*	*	*ICvox	*	*ICvox	*	*	*	*	*	*ICvox	*	*
*Ipiano	*Ipiano	*	*	*Ialto	*	*Isoprn	*	*	*	*	*	*Isoprn	*	*
*clefF4	*clefG2	*	*	*clefG2	*	*clefG2	*	*	*	*	*	*clefG2	*	*
*k[]	*k[]	*	*	*k[]	*	*k[]	*	*	*	*	*	*k[]	*	*
*C:	*C:	*	*	*C:	*	*C:	*	*	*	*	*	*C:	*	*
*M6/8	*M6/8	*	*	*M6/8	*	*M6/8	*	*	*	*	*	*M6/8	*	*
=1	=1	=1	=1	=1	=1	=1	=1	=1	=1	=1	=1	=1	=1	=1
!	!LO:TX:a:B:t=Allegretto.	!	!	!	!	!	!	!	!	!	!	!	!	!
!	!LO:TX:a:t=Oboe Solo.	!	!	!	!	!	!	!	!	!	!	!	!	!
2.r	(2.cc\	.	p	2.r	.	2.r	.	.	.	.	.	2.r	.	.
=2	=2	=2	=2	=2	=2	=2	=2	=2	=2	=2	=2	=2	=2	=2
2.r	4.dd\	.	<	2.r	.	2.r	.	.	.	.	.	2.r	.	.
.	8ff\	.	.	.	.	.	.	.	.	.	.	.	.	.
.	4ee\	.	.	.	.	.	.	.	.	.	.	.	.	.
=3	=3	=3	=3	=3	=3	=3	=3	=3	=3	=3	=3	=3	=3	=3
2.r	[2.gg\	.	[ >	2.r	.	2.r	.	.	.	.	.	2.r	.	.
=4	=4	=4	=4	=4	=4	=4	=4	=4	=4	=4	=4	=4	=4	=4
2.r	4gg\]	.	.	2.r	.	2.r	.	.	.	.	.	2.r	.	.
.	16ff\LL	.	.	.	.	.	.	.	.	.	.	.	.	.
.	16ee\JJ	.	.	.	.	.	.	.	.	.	.	.	.	.
.	4dd\	.	.	.	.	.	.	.	.	.	.	.	.	.
.	8cc\)	.	.	.	.	.	.	.	.	.	.	.	.	.
=5	=5	=5	=5	=5	=5	=5	=5	=5	=5	=5	=5	=5	=5	=5
2.r	[2.ee\	.	]	2.r	.	2.r	.	.	.	.	.	2.r	.	.
=6	=6	=6	=6	=6	=6	=6	=6	=6	=6	=6	=6	=6	=6	=6
2.r	2.ee\_	.	.	2.r	.	2.r	.	.	.	.	.	2.r	.	.
=7	=7	=7	=7	=7	=7	=7	=7	=7	=7	=7	=7	=7	=7	=7
8r	8ee\]	.	.	2.r	.	2.r	.	.	.	.	.	2.r	.	.
8r	8r	.	pp	.	.	.	.	.	.	.	.	.	.	.
!LO:TX:b:t=e V-celli.	!	!	!	!	!	!	!	!	!	!	!	!	!	!
8c'\	8r	.	.	.	.	.	.	.	.	.	.	.	.	.
8qd/	.	.	.	.	.	.	.	.	.	.	.	.	.	.
(4c^\	4r	.	.	.	.	.	.	.	.	.	.	.	.	.
8B\	8r	.	.	.	.	.	.	.	.	.	.	.	.	.
!!LO:LB:g=original	!	!	!	!	!	!	!	!	!	!	!	!	!
=8	=8	=8	=8	=8	=8	=8	=8	=8	=8	=8	=8	=8	=8	=8
8c\)	2.r	.	.	2.r	.	2.r	.	.	.	.	.	2.r	.	.
8r	.	.	.	.	.	.	.	.	.	.	.	.	.	.
8c'\	.	.	.	.	.	.	.	.	.	.	.	.	.	.
8qd/	.	.	.	.	.	.	.	.	.	.	.	.	.	.
([4c^\	.	.	.	.	.	.	.	.	.	.	.	.	.	.
16c\LL]	.	.	.	.	.	.	.	.	.	.	.	.	.	.
16B\JJ)	.	.	.	.	.	.	.	.	.	.	.	.	.	.
=9	=9	=9	=9	=9	=9	=9	=9	=9	=9	=9	=9	=9	=9	=9
*	*^	*	*	*	*	*	*	*	*	*	*	*	*	*
!	!LO:TX:b:t=Q.	!	!	!	!	!	!	!	!	!	!	!	!	!	!
[2.B\ [2.d	([4.gg/	[2.g\	.	.	2.r	.	2.r	.	.	.	.	.	2.r	.	.
.	4gg/_	.	.	.	.	.	.	.	.	.	.	.	.	.	.
.	16gg/LL]	.	.	.	.	.	.	.	.	.	.	.	.	.	.
.	16dd/JJ)	.	.	.	.	.	.	.	.	.	.	.	.	.	.
=10	=10	=10	=10	=10	=10	=10	=10	=10	=10	=10	=10	=10	=10	=10	=10
2.B\_ 2.d_	[2.dd/	2.g\_	.	.	2.r	.	2.r	.	.	.	.	.	2.r	.	.
=11	=11	=11	=11	=11	=11	=11	=11	=11	=11	=11	=11	=11	=11	=11	=11
8B\] 8d]	8dd/]	8g\]	.	.	2.r	.	2.r	.	.	.	.	.	2.r	.	.
8r	8ra	8ryy	.	.	.	.	.	.	.	.	.	.	.	.	.
8B'\	8ra	2ryy	.	.	.	.	.	.	.	.	.	.	.	.	.
8qc/	.	.	.	.	.	.	.	.	.	.	.	.	.	.	.
(4B^\	4r	.	.	.	.	.	.	.	.	.	.	.	.	.	.
8A\	8r	.	.	.	.	.	.	.	.	.	.	.	.	.	.
*	*v	*v	*	*	*	*	*	*	*	*	*	*	*	*	*
=12	=12	=12	=12	=12	=12	=12	=12	=12	=12	=12	=12	=12	=12	=12
8B\)	2.r	.	.	2.r	.	2.r	.	.	.	.	.	2.r	.	.
8r	.	.	.	.	.	.	.	.	.	.	.	.	.	.
8B'\	.	.	.	.	.	.	.	.	.	.	.	.	.	.
8qc/	.	.	.	.	.	.	.	.	.	.	.	.	.	.
([4B^\	.	.	.	.	.	.	.	.	.	.	.	.	.	.
16B\LL]	.	.	.	.	.	.	.	.	.	.	.	.	.	.
16A\JJ)	.	.	.	.	.	.	.	.	.	.	.	.	.	.
=13	=13	=13	=13	=13	=13	=13	=13	=13	=13	=13	=13	=13	=13	=13
*	*^	*	*	*	*	*	*	*	*	*	*	*	*	*
2.A\ 2.c	([4.gg/	[2.g\	.	.	2.r	.	2.r	.	.	.	.	.	2.r	.	.
.	4gg/_	.	.	.	.	.	.	.	.	.	.	.	.	.	.
.	16gg/LL]	.	.	.	.	.	.	.	.	.	.	.	.	.	.
.	16cc/JJ)	.	.	.	.	.	.	.	.	.	.	.	.	.	.
=14	=14	=14	=14	=14	=14	=14	=14	=14	=14	=14	=14	=14	=14	=14	=14
4A\	2.cc/	2.g\]	.	.	2.r	.	2.r	.	.	.	.	.	2.r	.	.
8A'\	.	.	.	.	.	.	.	.	.	.	.	.	.	.	.
8qB/	.	.	.	.	.	.	.	.	.	.	.	.	.	.	.
N([4A^\	.	.	.	.	.	.	.	.	.	.	.	.	.	.	.
16A\LL]	.	.	.	.	.	.	.	.	.	.	.	.	.	.	.
16A-X\JJ	.	.	.	.	.	.	.	.	.	.	.	.	.	.	.
!!LO:LB:g=original	!	!	!	!	!	!	!	!	!	!	!	!	!	!
=15	=15	=15	=15	=15	=15	=15	=15	=15	=15	=15	=15	=15	=15	=15	=15
*^	*	*	*	*	*	*	*	*	*	*	*	*	*	*	*
(>4.G/	[2.G\N)	(4.cc/	4.e\	.	.	2.r	.	2.r	.	.	.	.	.	2.r	.	.
4.c/	.	4ff/	4a\	.	.	.	.	.	.	.	.	.	.	.	.	.
.	.	8ee/	8g\	.	.	.	.	.	.	.	.	.	.	.	.	.
=16	=16	=16	=16	=16	=16	=16	=16	=16	=16	=16	=16	=16	=16	=16	=16	=16
4.A/	2.G\]	2.dd/)	2.f\	.	.	2.r	.	2.r	.	.	.	.	.	2.r	.	.
4.Bt/	.	.	.	.	.	.	.	.	.	.	.	.	.	.	.	.
16qqA/L	.	.	.	.	.	.	.	.	.	.	.	.	.	.	.	.
16qqB/J)	.	.	.	.	.	.	.	.	.	.	.	.	.	.	.	.
=17	=17	=17	=17	=17	=17	=17	=17	=17	=17	=17	=17	=17	=17	=17	=17	=17
!	!	!LO:TX:a:t=Fl.	!	!	!	!	!	!	!	!	!	!	!	!	!	!
(2.c/	4r	([2.cc/	2.e\	.	.	2.r	.	2.r	.	.	.	.	.	2.r	.	.
.	8rC	.	.	.	.	.	.	.	.	.	.	.	.	.	.	.
.	(4.G#X\	.	.	.	.	.	.	.	.	.	.	.	.	.	.	.
=18	=18	=18	=18	=18	=18	=18	=18	=18	=18	=18	=18	=18	=18	=18	=18	=18
2.A/)	4.A\	4cc/]	4.f\	.	.	2.r	.	2.r	.	.	.	.	.	2.r	.	.
.	.	16dd/LL	.	.	.	.	.	.	.	.	.	.	.	.	.	.
.	.	16cc/JJ	.	.	.	.	.	.	.	.	.	.	.	.	.	.
.	4.F\)	32%3b/L	8ryy	.	.	.	.	.	.	.	.	.	.	.	.	.
.	.	32%3cc/	.	.	.	.	.	.	.	.	.	.	.	.	.	.
.	.	.	4ryy	.	.	.	.	.	.	.	.	.	.	.	.	.
.	.	32%3ff/	.	.	.	.	.	.	.	.	.	.	.	.	.	.
.	.	32%3aa/J)	.	.	.	.	.	.	.	.	.	.	.	.	.	.
*v	*v	*	*	*	*	*	*	*	*	*	*	*	*	*	*	*
*	*v	*v	*	*	*	*	*	*	*	*	*	*	*	*	*
=19	=19	=19	=19	=19	=19	=19	=19	=19	=19	=19	=19	=19	=19	=19
[2.C\ [2.G [2.e	[2.ccc\	.	.	2.r	.	2.r	.	.	.	.	.	2.r	.	.
=20	=20	=20	=20	=20	=20	=20	=20	=20	=20	=20	=20	=20	=20	=20
4.C\_ 4.G_ 4.e_	4.ccc\_	.	.	2.r	.	2.r	.	.	.	.	.	2.r	.	.
4C\] 4G] 4e]	4ccc\]	.	.	.	.	.	.	.	.	.	.	.	.	.
8r	8r	.	.	.	.	.	.	.	.	.	.	.	.	.
=21	=21	=21	=21	=21	=21	=21	=21	=21	=21	=21	=21	=21	=21	=21
!	!LO:TX:a:t=Oboe.	!	!	!	!	!	!	!	!	!	!	!	!	!
2.r	(2.cc\	.	p	2.r	.	2.r	.	.	.	.	.	2.r	.	.
=22	=22	=22	=22	=22	=22	=22	=22	=22	=22	=22	=22	=22	=22	=22
2.r	4.ee\	.	.	2.r	.	2.r	.	.	.	.	.	2.r	.	.
.	4ff\	.	.	.	.	.	.	.	.	.	.	.	.	.
.	8ee\	.	.	.	.	.	.	.	.	.	.	.	.	.
!!LO:LB:g=original	!	!	!	!	!	!	!	!	!	!	!	!	!
=23	=23	=23	=23	=23	=23	=23	=23	=23	=23	=23	=23	=23	=23	=23
2.r	[2.gg\	.	.	2.r	.	2.r	.	.	.	.	.	2.r	.	.
=24	=24	=24	=24	=24	=24	=24	=24	=24	=24	=24	=24	=24	=24	=24
2.r	4gg\]	.	.	2.r	.	2.r	.	.	.	.	.	2.r	.	.
.	16ff\LL	.	.	.	.	.	.	.	.	.	.	.	.	.
.	16ee\JJ	.	.	.	.	.	.	.	.	.	.	.	.	.
.	4dd\	.	.	.	.	.	.	.	.	.	.	.	.	.
.	8cc\)	.	.	.	.	.	.	.	.	.	.	.	.	.
=25	=25	=25	=25	=25	=25	=25	=25	=25	=25	=25	=25	=25	=25	=25
2.r	([2.aa^\	.	.	2.r	.	2.r	.	.	.	.	.	2.r	.	.
=26	=26	=26	=26	=26	=26	=26	=26	=26	=26	=26	=26	=26	=26	=26
!	!LO:TX:b:i:t=un poco\n rall.	!	!	!	!	!	!	!	!	!	!	!	!	!
2.r	8aa\L]	.	.	2.r	.	2.r	.	.	.	.	.	2.r	.	.
.	8gg\	.	.	.	.	.	.	.	.	.	.	.	.	.
.	8ee\J	.	.	.	.	.	.	.	.	.	.	.	.	.
.	8cc/L	.	.	.	.	.	.	.	.	.	.	.	.	.
.	8g/	.	.	.	.	.	.	.	.	.	.	.	.	.
.	8f/J)	.	.	.	.	.	.	.	.	.	.	.	.	.
=27	=27	=27	=27	=27	=27	=27	=27	=27	=27	=27	=27	=27	=27	=27
2.r	[2.e/	.	.	2.r	.	2.r	.	.	.	.	.	2.r	.	.
=28	=28	=28	=28	=28	=28	=28	=28	=28	=28	=28	=28	=28	=28	=28
2.r	2.e/_	.	.	2.r	.	2.r	.	.	.	.	.	2.r	.	.
=29	=29	=29	=29	=29	=29	=29	=29	=29	=29	=29	=29	=29	=29	=29
8r	4e/]	.	.	2.r	.	2.r	.	.	.	.	.	2.r	.	.
8r	.	.	.	.	.	.	.	.	.	.	.	.	.	.
*clefG2	*	*	*	*	*	*	*	*	*	*	*	*	*	*
8e'/	8r	.	.	.	.	.	.	.	.	.	.	.	.	.
!LO:TX:b:t=e V-celli.	!	!	!	!	!	!	!	!	!	!	!	!	!	!
8qf/	.	.	.	.	.	.	.	.	.	.	.	.	.	.
(4e^/	4r	.	.	.	.	.	.	.	.	.	.	.	.	.
8d#X/	8r	.	.	.	.	.	.	.	.	.	.	.	.	.
=30	=30	=30	=30	=30	=30	=30	=30	=30	=30	=30	=30	=30	=30	=30
8e/)	2.r	.	.	2.r	.	2.r	.	.	.	.	.	2.r	.	.
8r	.	.	.	.	.	.	.	.	.	.	.	.	.	.
8e'/	.	.	.	.	.	.	.	.	.	.	.	.	.	.
8qf/	.	.	.	.	.	.	.	.	.	.	.	.	.	.
([4e^/	.	.	.	.	.	.	.	.	.	.	.	.	.	.
16e/LL]	.	.	.	.	.	.	.	.	.	.	.	.	.	.
16dn/JJ)	.	.	.	.	.	.	.	.	.	.	.	.	.	.
!!LO:LB:g=original	!	!	!	!	!	!	!	!	!	!	!	!	!
=31	=31	=31	=31	=31	=31	=31	=31	=31	=31	=31	=31	=31	=31	=31
*	*^	*	*	*	*	*	*	*	*	*	*	*	*	*
!	!LO:TX:b:t=Q.	!	!	!	!	!	!	!	!	!	!	!	!	!	!
[2.d/	([4.ee/	[2.e\ [2.g#X	.	.	2.r	.	2.r	.	.	.	.	.	2.r	.	.
.	4ee/_	.	.	.	.	.	.	.	.	.	.	.	.	.	.
.	16ee/LL]	.	.	.	.	.	.	.	.	.	.	.	.	.	.
.	16b/JJ)	.	.	.	.	.	.	.	.	.	.	.	.	.	.
=32	=32	=32	=32	=32	=32	=32	=32	=32	=32	=32	=32	=32	=32	=32	=32
2.d/_	[2.b/	2.e\_ 2.g#_	.	.	2.r	.	2.r	.	.	.	.	.	2.r	.	.
=33	=33	=33	=33	=33	=33	=33	=33	=33	=33	=33	=33	=33	=33	=33	=33
8d/]	4b/]	4e\] 4g#]	.	.	2.r	.	2.r	.	.	.	.	.	2.r	.	.
8r	.	.	.	.	.	.	.	.	.	.	.	.	.	.	.
8d'/	8r	2ryy	.	.	.	.	.	.	.	.	.	.	.	.	.
8qe/	.	.	.	.	.	.	.	.	.	.	.	.	.	.	.
(4d^/	4r	.	.	.	.	.	.	.	.	.	.	.	.	.	.
8c#X/	8r	.	.	.	.	.	.	.	.	.	.	.	.	.	.
*	*v	*v	*	*	*	*	*	*	*	*	*	*	*	*	*
=34	=34	=34	=34	=34	=34	=34	=34	=34	=34	=34	=34	=34	=34	=34
8d/)	2.r	.	.	2.r	.	2.r	.	.	.	.	.	2.r	.	.
8r	.	.	.	.	.	.	.	.	.	.	.	.	.	.
8d'/	.	.	.	.	.	.	.	.	.	.	.	.	.	.
8qe/	.	.	.	.	.	.	.	.	.	.	.	.	.	.
([4d^/	.	.	.	.	.	.	.	.	.	.	.	.	.	.
16d/LL]	.	.	.	.	.	.	.	.	.	.	.	.	.	.
16c/JJ)	.	.	.	.	.	.	.	.	.	.	.	.	.	.
*clefF4	*	*	*	*	*	*	*	*	*	*	*	*	*	*
=35	=35	=35	=35	=35	=35	=35	=35	=35	=35	=35	=35	=35	=35	=35
[2.c\	4.e/ 4.g 4.b-X (>[4.ee	.	pp	2.r	.	2.r	.	.	.	.	.	2.r	.	.
.	4e/ 4g 4b- 4ee_	.	.	.	.	.	.	.	.	.	.	.	.	.
.	16ee/LL])	.	.	.	.	.	.	.	.	.	.	.	.	.
.	16e/JJ) 16g	.	.	.	.	.	.	.	.	.	.	.	.	.
=36	=36	=36	=36	=36	=36	=36	=36	=36	=36	=36	=36	=36	=36	=36
8c\]	[2.e/ [2.g	.	.	2.r	.	2.r	.	.	.	.	.	2.r	.	.
8r	.	.	.	.	.	.	.	.	.	.	.	.	.	.
8c'\	.	.	.	.	.	.	.	.	.	.	.	.	.	.
8qd/	.	.	.	.	.	.	.	.	.	.	.	.	.	.
(4c^\	.	.	.	.	.	.	.	.	.	.	.	.	.	.
8B\)	.	.	.	.	.	.	.	.	.	.	.	.	.	.
!!LO:PB:g=original	!	!	!	!	!	!	!	!	!	!	!	!	!
=37	=37	=37	=37	=37	=37	=37	=37	=37	=37	=37	=37	=37	=37	=37
*	*^	*	*	*	*	*	*	*	*	*	*	*	*	*
!	!LO:TX:b:i:t=(SI ALZA LA TELA)	!	!	!	!	!	!	!	!	!	!	!	!	!	!
!	!LO:TX:b:t=(ZASŁONA)	!	!	!	!	!	!	!	!	!	!	!	!	!	!
4.B\	8e/] 8g]	4ryy	.	.	2.r	.	2.r	.	.	.	.	.	2.r	.	.
.	8r	.	.	.	.	.	.	.	.	.	.	.	.	.	.
.	8ee/	8ee\	.	.	.	.	.	.	.	.	.	.	.	.	.
(4.B-X\ 4.c#X	(4gg/	4.g\	.	.	.	.	.	.	.	.	.	.	.	.	.
.	8ff#X/	.	.	.	.	.	.	.	.	.	.	.	.	.	.
=38	=38	=38	=38	=38	=38	=38	=38	=38	=38	=38	=38	=38	=38	=38	=38
4.A\ 4.cn	8dd/)	4.f#X\	.	.	2.r	.	2.r	.	.	.	.	.	2.r	.	.
.	8ree	.	.	.	.	.	.	.	.	.	.	.	.	.	.
.	(8dd/	.	.	.	.	.	.	.	.	.	.	.	.	.	.
4.G#X\ 4.B	4ffn/	4.fn\	.	.	.	.	.	.	.	.	.	.	.	.	.
.	8ee/)	.	.	.	.	.	.	.	.	.	.	.	.	.	.
=39	=39	=39	=39	=39	=39	=39	=39	=39	=39	=39	=39	=39	=39	=39	=39
4.A\ [4.c	(4cc/	4.e\	.	.	2.r	.	2.r	.	.	.	.	.	2.r	.	.
.	8aa/)	.	.	.	.	.	.	.	.	.	.	.	.	.	.
4.E\ 4.G 4.c]	(8gg/L	(4g\	.	.	.	.	.	.	.	.	.	.	.	.	.
.	8ff/	.	.	.	.	.	.	.	.	.	.	.	.	.	.
.	8ee/J)	8cc\)	.	.	.	.	.	.	.	.	.	.	.	.	.
=40	=40	=40	=40	=40	=40	=40	=40	=40	=40	=40	=40	=40	=40	=40	=40
*^	*	*	*	*	*	*	*	*	*	*	*	*	*	*	*
[4.f/	4.F\	2.dd/	8cc\L	.	.	2.r	.	2.r	.	.	.	.	.	2.r	.	.
.	.	.	8b\	.	.	.	.	.	.	.	.	.	.	.	.	.
.	.	.	8b-X\J	.	.	.	.	.	.	.	.	.	.	.	.	.
(8f/L])	[4.G\	.	8a\L	.	.	.	.	.	.	.	.	.	.	.	.	.
8A/ 8e	.	.	8g\	.	.	.	.	.	.	.	.	.	.	.	.	.
8Bn/J) 8d	.	.	8f\J	.	.	.	.	.	.	.	.	.	.	.	.	.
=41	=41	=41	=41	=41	=41	=41	=41	=41	=41	=41	=41	=41	=41	=41	=41	=41
8c/	8G\]	[2.cc/	[2.e\	.	.	2.r	.	2.r	.	.	.	.	.	2.r	.	.
8ryy	8rC	.	.	.	.	.	.	.	.	.	.	.	.	.	.	.
8c'\	2ryy	.	.	.	.	.	.	.	.	.	.	.	.	.	.	.
8qd/	.	.	.	.	.	.	.	.	.	.	.	.	.	.	.	.
(>[>4c^\	.	.	.	.	.	.	.	.	.	.	.	.	.	.	.	.
16c\LL]	.	.	.	.	.	.	.	.	.	.	.	.	.	.	.	.
16G\JJ	.	.	.	.	.	.	.	.	.	.	.	.	.	.	.	.
!!LO:LB:g=original	!	!	!	!	!	!	!	!	!	!	!	!	!	!	!
=42	=42	=42	=42	=42	=42	=42	=42	=42	=42	=42	=42	=42	=42	=42	=42	=42
!	!	!	!	!	!	!	!	!LO:TX:a:t=Soprani.	!	!	!	!	!	!	!	!
!	!	!	!	!	!	!LO:TX:a:t=Alti.	!	!LO:TX:b:B:t=BRAMINE.\nBRAMINKI.	!	!	!	!	!	!	!	!
4rc	2.G\)	4cc/]	2.e\]	.	.	2.r	.	2.r	.	.	.	.	.	2.r	.	.
8rc	.	(8cc/	.	.	.	.	.	.	.	.	.	.	.	.	.	.
.	.	8qdd/	.	.	.	.	.	.	.	.	.	.	.	.	.	.
(4.d/	.	4cc^/	.	.	.	.	.	.	.	.	.	.	.	.	.	.
.	.	8b/)	.	.	.	.	.	.	.	.	.	.	.	.	.	.
=43	=43	=43	=43	=43	=43	=43	=43	=43	=43	=43	=43	=43	=43	=43	=43	=43
8c/)	8G\	[2.cc/	[2.e\	.	.	2.r	.	2.r	.	.	.	.	.	2.r	.	.
8rC	8ryy	.	.	.	.	.	.	.	.	.	.	.	.	.	.	.
2ryy	8c\	.	.	.	.	.	.	.	.	.	.	.	.	.	.	.
.	8qd/	.	.	.	.	.	.	.	.	.	.	.	.	.	.	.
.	([4c^\	.	.	.	.	.	.	.	.	.	.	.	.	.	.	.
.	16c\LL]	.	.	.	.	.	.	.	.	.	.	.	.	.	.	.
.	16G\JJ)	.	.	.	.	.	.	.	.	.	.	.	.	.	.	.
*v	*v	*	*	*	*	*	*	*	*	*	*	*	*	*	*	*
*	*v	*v	*	*	*	*	*	*	*	*	*	*	*	*	*
=44	=44	=44	=44	=44	=44	=44	=44	=44	=44	=44	=44	=44	=44	=44
4.G\	4e/] 4cc]	.	.	2.r	.	2.r	.	.	.	.	.	2.r	.	.
.	8e/ 8cc	.	.	.	.	.	.	.	.	.	.	.	.	.
.	8qdd/	.	.	.	.	.	.	.	.	.	.	.	.	.
(4.E\ 4.G#X	((4e/ 4cc	.	.	.	.	.	.	.	.	.	.	.	.	.
.	8d/)) 8b	.	.	.	.	.	.	.	.	.	.	.	.	.
=45	=45	=45	=45	=45	=45	=45	=45	=45	=45	=45	=45	=45	=45	=45
!LO:TX:a:t=Clar.\nFag.	!	!	!	!	!LO:DY:a	!	!	!	!	!	!LO:DY:a	!	!	!
8A'\)	8c'/ 8a	.	.	4c/	p	4e/ 4a	Z pod	Già	.	.	p	2.r	.	.
8r	8r	.	.	.	.	.	.	.	.	.	.	.	.	.
8A'\ 8c	8e'/ 8a	.	.	8c/	.	8e/ 8a	gwiaż-	la	.	.	.	.	.	.
8A'\ 8c	8e/ 8a	.	.	4c/	.	4e/ 4a	-dzi-	not-	.	.	.	.	.	.
8r	8r	.	.	.	.	.	.	.	.	.	.	.	.	.
((8E\ 8B	[8e/ (>8g#X	.	.	8B/	.	8e/ 8g#X	-stej	-te al	.	.	.	.	.	.
=46	=46	=46	=46	=46	=46	=46	=46	=46	=46	=46	=46	=46	=46	=46
8A'\)) 8c	8e'/] 8a)	.	.	4c/	.	4e/ 4a	noc	dì	.	.	.	2.r	.	.
8r	8r	.	.	.	.	.	.	.	.	.	.	.	.	.
8A'\ 8c	8e'/ 8a	.	.	8c/	.	8e/ 8a	o-	na-	.	.	.	.	.	.
8A\ 8c	8e/ 8a	.	.	4c/	.	4e/ 4a	-poń-	-scen-	.	.	.	.	.	.
8r	8r	.	.	.	.	.	.	.	.	.	.	.	.	.
((8E\ 8B	[8e/ (>8g#X	.	.	8B/	.	8e/ 8g#X	-czy	-te	.	.	.	.	.	.
!!LO:LB:g=original	!	!	!	!	!	!	!	!	!	!	!	!	!
=47	=47	=47	=47	=47	=47	=47	=47	=47	=47	=47	=47	=47	=47	=47
*	*	*	*	*	*	*^	*	*	*	*	*	*	*	*
8A\))	8e'/] 8a)	.	.	4c/	.	4e/ 4a	4.ryy	zwal-	ce-	.	.	.	2.r	.	.
8r	8r	.	.	.	.	.	.	.	.	.	.	.	.	.	.
8A\	8e'/ 8a	.	.	8c/	.	8e/ 8a	.	-nia	-de il	.	.	.	.	.	.
8G\	(8gn/L 8b	.	.	4d/	.	8b/L	8d\L	ja-	suo	.	.	.	.	.	.
8r	8d/) 8g	.	.	.	.	8g/J	8gn\J	.	.	.	.	.	.	.	.
8G\	8f'/J 8b	.	.	8g/	.	8b/	8f\	-sny	po-	.	.	.	.	.	.
*	*	*	*	*	*	*v	*v	*	*	*	*	*	*	*	*
=48	=48	=48	=48	=48	=48	=48	=48	=48	=48	=48	=48	=48	=48	=48
[4.c\	[4.e/ [4.cc	.	.	[4.c/ [4.g	.	[4.e/ [4.cc	dzień.	-ter.	.	.	.	2.r	.	.
4c\]	4e/] 4cc]	.	.	4c/] 4g]	.	4e/] 4cc]	.	.	.	.	.	.	.	.
8r	8r	.	.	8r	.	8r	.	.	.	.	.	.	.	.
=49	=49	=49	=49	=49	=49	=49	=49	=49	=49	=49	=49	=49	=49	=49
8B\ 8d	8g\ 8dd	.	.	4B/	.	4g\ 4dd	Pa-	Il	.	.	.	2.r	.	.
8r	8r	.	.	.	.	.	.	.	.	.	.	.	.	.
8B\ 8d	8g\ 8dd	.	.	8B/ 8d	.	8g\ 8dd	-no-	chia-	.	.	.	.	.	.
4B\ 4d	4g\ 4dd	.	.	4B/ 4d	.	4g\ 4dd	-wa-	-ror	.	.	.	.	.	.
8A\ 8d	8f#X/ 8cc	.	.	8A/ 8d	.	8f#X/ 8cc	-nie	del	.	.	.	.	.	.
=50	=50	=50	=50	=50	=50	=50	=50	=50	=50	=50	=50	=50	=50	=50
*^	*	*	*	*	*	*	*	*	*	*	*	*	*	*
8A/ 8c	4.ryy	8f#X\ 8ee	.	.	4A/ 4c	.	4f#X\ 4ee	jej	sol	.	.	.	2.r	.	.
8rc	.	8r	.	.	.	.	.	.	.	.	.	.	.	.	.
8A/ 8c	.	8f#/ 8dd	.	.	8d/	.	8f#/ 8dd	się	ful-	.	.	.	.	.	.
8c/	(4.A-X\	8fn/ 8dd	.	.	4d/	.	4fn/ 4dd	kon-	-gen-	.	.	.	.	.	.
8rc	.	8r	.	.	.	.	.	.	.	.	.	.	.	.	.
8c/	.	8f/ 8cc	.	.	8d/	.	8f/ 8cc	-czy	-te	.	.	.	.	.	.
=51	=51	=51	=51	=51	=51	=51	=51	=51	=51	=51	=51	=51	=51	=51	=51
*	*	*^	*	*	*	*	*^	*	*	*	*	*	*	*	*
(8d/L	8G\)	(8b/L	2.f\	.	.	8d/L	.	8b/L	4f\	zni-	stà	.	.	.	2.r	.	.
8c/	8rEE	8a/	.	.	.	8c/J	.	8a/J	.	.	.	.	.	.	.	.	.
8B/J	8G\	8g/J	.	.	.	8B/	.	8g/	8f\	-ka	per	.	.	.	.	.	.
4A/)	8G\	8cc/)	.	.	.	4A/ 4f	.	4f/ 4cc	8ryy	smę-	ap-	.	.	.	.	.	.
.	8rEE	8raa	.	.	.	.	.	.	4ryy	.	.	.	.	.	.	.	.
8B/	8G\	8dd/	.	.	.	8B/ 8g	.	8f/ 8dd	.	-tny	-pa-	.	.	.	.	.	.
*v	*v	*	*	*	*	*	*	*v	*v	*	*	*	*	*	*	*	*
!!LO:LB:g=original	!	!	!	!	!	!	!	!	!	!	!	!	!	!
=52	=52	=52	=52	=52	=52	=52	=52	=52	=52	=52	=52	=52	=52	=52	=52
*	*	*^	*	*	*	*	*	*	*	*	*	*	*	*	*
[2.c\	(<2.ee/	4g/	(2.e\	.	.	[2.c/ [2.g	.	[2.e/ [2.ee	cień.	-rer.	.	.	.	2.r	.	.
.	.	8g/	.	.	.	.	.	.	.	.	.	.	.	.	.	.
.	.	8qa/	.	.	.	.	.	.	.	.	.	.	.	.	.	.
.	.	4g/	.	.	.	.	.	.	.	.	.	.	.	.	.	.
.	.	8e/	.	.	.	.	.	.	.	.	.	.	.	.	.	.
*	*v	*v	*v	*	*	*	*	*	*	*	*	*	*	*	*	*
=53	=53	=53	=53	=53	=53	=53	=53	=53	=53	=53	=53	=53	=53	=53
*	*	*	*	*	*	*^	*	*	*	*	*	*	*	*
4c\]	2.e/)) 2.g	.	.	4c/] 4g]	.	4e/] 4ee]	4ryy	.	.	.	.	.	2.r	.	.
*	*	*	*	*	*	*	*	*	*	*above	*	*	*	*	*
8c'\	.	.	.	8r	.	8g/	8rc	.	.	I	Fra	.	.	.	.
8qd/	.	.	.	.	.	.	.	.	.	.	.	.	.	.	.
(4c\	.	.	.	4r	.	4cc/	4rc	.	.	wscho-	bre-	.	.	.	.
8B\)	.	.	.	8r	.	8ee/	8rc	.	.	-dzi	-ve	.	.	.	.
=54	=54	=54	=54	=54	=54	=54	=54	=54	=54	=54	=54	=54	=54	=54	=54
8c\ 8e	(4g\ 4gg	.	.	8r	.	[2.gg/	8rf	.	.	sloń-	all’a-	.	2.r	.	.
8r	.	.	.	8r	.	.	8rf	.	.	.	.	.	.	.	.
8c\	8g\) 8ee	.	.	8g/	.	.	8ee\	J	Fra	.	.	.	.	.	.
8c\	8g\ 8ee	.	.	4g/	.	.	4ee\	wscho-	bre-	.	.	.	.	.	.
8r	8r	.	.	.	.	.	.	.	.	.	.	.	.	.	.
8c\	8f/ 8dd	.	.	8f/	.	.	8dd\	-dzi	-ve	.	.	.	.	.	.
=55	=55	=55	=55	=55	=55	=55	=55	=55	=55	=55	=55	=55	=55	=55	=55
8c\	(4e/ 4cc	.	.	4e/	.	4gg/]	4cc\	bóg	all’a-	.	.	.	2.r	.	.
8r	.	.	.	.	.	.	.	.	.	.	.	.	.	.	.
8c'\	8e/ 8g	.	.	8e/	.	8g/	8g\	o-	-stro	-ce	-stro	.	.	.	.
8qd/	.	.	.	.	.	.	.	.	.	.	.	.	.	.	.
(4c\	8e/) 8cc	.	.	4e/	.	4cc/	4cc\	-broń-	sfa-	bóg	sfa-	.	.	.	.
.	8r	.	.	.	.	.	.	.	.	.	.	.	.	.	.
8B\)	8g\ 8ee	.	.	8e/	.	8ee/	8g\	-czy	-vil-	o-	-vil-	.	.	.	.
=56	=56	=56	=56	=56	=56	=56	=56	=56	=56	=56	=56	=56	=56	=56	=56
*	*^	*	*	*	*	*	*	*	*	*	*	*	*	*	*
8c\	(4gg/	8ee\L	.	.	4g/	.	[2.gg/	4g\	po-	-lan-	-broń-	-lan-	.	2.r	.	.
8r	.	8cc\	.	.	.	.	.	.	.	.	.	.	.	.	.	.
8G\ 8c	8ee/)	8g\J	.	.	8g/	.	.	8ee\	-śród	-te	.	.	.	.	.	.
8qd/	.	.	.	.	.	.	.	.	.	.	.	.	.	.	.	.
(4A^\ 4c	(4g/ 4ee	4.ryy	.	.	4g/	.	.	4ee\	pie-	all’a-	.	.	.	.	.	.
8B\)	8f/) 8g 8dd	.	.	.	8f/ 8g	.	.	8dd\	-śni	-stro	.	.	.	.	.	.
*	*v	*v	*	*	*	*	*	*	*	*	*	*	*	*	*	*
!!LO:PB:g=original	!	!	!	!	!	!	!	!	!	!	!	!	!	!
=57	=57	=57	=57	=57	=57	=57	=57	=57	=57	=57	=57	=57	=57	=57	=57
.	8qdd/	.	.	.	.	.	.	.	.	.	.	.	.	.	.
4c\	8e/ 8g 8cc	.	.	4e/	.	(4gg/]	4cc\	brzmień	sfa-	.	.	.	2.r	.	.
.	8r	.	.	.	.	.	.	.	.	.	.	.	.	.	.
8B\	8c/ 8e 8cc	.	.	8c/	.	8ee/)	8e\	i	-vil-	.	.	.	.	.	.
8qB/	.	.	.	.	.	.	.	.	.	.	.	.	.	.	.
(4A^\	8d/ 8f 8cc	.	.	4d/	.	4cc/	4f\	wscho-	-lan-	-czy	-te	.	.	.	.
.	8r	.	.	.	.	.	.	.	.	.	.	.	.	.	.
8G\)	8e/ 8g 8cc	.	.	8e/	.	8cc/	8g\	-dzi	-te	i	gli in-	.	.	.	.
*	*	*	*	*	*	*v	*v	*	*	*	*	*	*	*	*
=58	=58	=58	=58	=58	=58	=58	=58	=58	=58	=58	=58	=58	=58	=58
4.F\ 4.A	8f/ 8cc	.	.	4f/	.	4a\ 4cc	wscho-	in-	.	-nie	.	2.r	.	.
.	8r	.	.	.	.	.	.	.	.	.	.	.	.	.
.	8a/	.	.	8c/	.	8f/ 8a	-dzi	-nie	.	le	.	.	.	.
4.G\ 4.B	8d/ 8g	.	.	4B/	.	4d/ 4g	po-	pre-	.	.	.	.	.	.
.	8r	.	.	.	.	.	.	.	.	.	.	.	.	.
.	8f/	.	.	8B/	.	8d/ 8f	-śród	-ci	.	.	.	.	.	.
*	*	*	*	*	*	*	*	*	*	*below	*	*	*	*
=59	=59	=59	=59	=59	=59	=59	=59	=59	=59	=59	=59	=59	=59	=59
*	*	*	*	*	*	*^	*	*	*	*	*	*	*	*
4.A\ 4.c	(4e/	.	.	4c/	.	4e/	4e\	pie-	vol-	.	.	.	2.r	.	.
.	8a/)	.	.	8c/	.	8a/	8e\	-śni	-ge-	.	.	.	.	.	.
4.B\ 4.d	8g/	.	.	8g/	.	8g/	8g\	brzmień	-rem,	.	.	.	.	.	.
.	8r	.	.	8r	.	8raa	8rc	.	.	.	.	.	.	.	.
.	8f/ 8g	.	.	8f/	.	8g/	8g\	śród	le	.	.	.	.	.	.
*	*	*	*	*	*	*v	*v	*	*	*	*	*	*	*	*
=60	=60	=60	=60	=60	=60	=60	=60	=60	=60	=60	=60	=60	=60	=60
4.c\	8e/ 8g	.	.	4e/	.	4g/	na-	pre-	.	.	.	2.r	.	.
.	8r	.	.	.	.	.	.	.	.	.	.	.	.	.
.	8e/ 8g 8cc	.	.	8e/	.	8g/ 8cc	-szych	-ci	.	.	.	.	.	.
4.G\	8g\ 8b 8dd	.	.	4g/	.	4b\ 4dd	ran-	vol-	.	.	.	.	.	.
.	8r	.	.	.	.	.	.	.	.	.	.	.	.	.
.	8g\ 8dd 8ff	.	.	8g/	.	8dd\ 8ff	-nych	-ge-	.	.	.	.	.	.
=61	=61	=61	=61	=61	=61	=61	=61	=61	=61	=61	=61	=61	=61	=61
*	*^	*	*	*	*	*	*	*	*	*	*	*	*	*
8C\	8cc\ 8ee	4.ryy	.	.	2.c/ 2.g	.	2.cc\ 2.ee	pień	-rem.	.	.	.	2.r	.	.
8G\L	8c/L 8e	.	.	.	.	.	.	.	.	.	.	.	.	.	.
8C\J 8c	8e/J 8g	.	.	.	.	.	.	.	.	.	.	.	.	.	.
8C'\ 8G	4cc/	(8e\L	.	.	.	.	.	.	.	.	.	.	.	.	.
8r	.	8g\)	.	.	.	.	.	.	.	.	.	.	.	.	.
8C'\ 8G	8ee/	8cc\J	.	.	.	.	.	.	.	.	.	.	.	.	.
*	*v	*v	*	*	*	*	*	*	*	*	*	*	*	*	*
!!LO:LB:g=original	!	!	!	!	!	!	!	!	!	!	!	!	!
=62	=62	=62	=62	=62	=62	=62	=62	=62	=62	=62	=62	=62	=62	=62
*	*	*	*	*	*	*^	*	*	*	*	*	*	*	*
8C'\ 8B	4f\ 4g 4gg	.	.	4g/	.	4g/	4g\	Z pod	Già	.	.	.	2.r	.	.
8r	.	.	.	.	.	.	.	.	.	.	.	.	.	.	.
8C'\ 8G	8f/ 8g 8dd	.	.	8d/	.	8g/ 8dd	4.ryy	gwiaz-	la	.	.	.	.	.	.
8C'\ 8G	4f/ 4g 4dd	.	.	4d/	.	4g/ 4dd	.	-dzi-	not-	.	.	.	.	.	.
8r	.	.	.	.	.	.	.	.	.	.	.	.	.	.	.
8C'\ 8B	8f\ 8g 8gg	.	.	8g/	.	8g/	8g\	-stej	-te al	.	.	.	.	.	.
=63	=63	=63	=63	=63	=63	=63	=63	=63	=63	=63	=63	=63	=63	=63	=63
8C'\ 8B	4f\ 4g 4gg	.	.	4g/	.	4g/	4g\	noc	dì	.	.	.	2.r	.	.
8r	.	.	.	.	.	.	.	.	.	.	.	.	.	.	.
8C'\ 8G	8f/ 8g 8dd	.	.	8d/	.	8g/ 8dd	4.ryy	o-	na-	.	.	.	.	.	.
8C'\ 8G	4f/ 4g 4dd	.	.	4d/	.	4g/ 4dd	.	-poń-	-scen-	.	.	.	.	.	.
8r	.	.	.	.	.	.	.	.	.	.	.	.	.	.	.
8C'\ 8c	8e/ 8g 8ee	.	.	8g/	.	8g/	8g\	-czy	-te	.	.	.	.	.	.
=64	=64	=64	=64	=64	=64	=64	=64	=64	=64	=64	=64	=64	=64	=64	=64
*	*^	*	*	*	*	*	*	*	*	*	*	*	*	*	*
8C'\ 8c	4e/ 4g 4ee	4.ryy	.	.	4g/	.	4ee/	4ee\	zwal-	ce-	.	.	.	2.r	.	.
8r	.	.	.	.	.	.	.	.	.	.	.	.	.	.	.	.
8C'\ 8G	8e/ 8cc	.	.	.	8r	.	8cc/	8cc\	-nia	-de il	.	.	.	.	.	.
8C'\ 8G	(4b/	4.e\	.	.	4r	.	4b/	4b\	ja-	suo	.	.	.	.	.	.
8r	.	.	.	.	.	.	.	.	.	.	.	.	.	.	.	.
8C'\ 8G	8a/)	.	.	.	8r	.	8a/	8a\	-sny	po-	.	.	.	.	.	.
=65	=65	=65	=65	=65	=65	=65	=65	=65	=65	=65	=65	=65	=65	=65	=65	=65
*^	*	*	*	*	*	*	*	*	*	*	*	*	*	*	*	*
8C\ 8G	4.ryy	4g/	4f\	.	.	4f/	.	[4.g/	[4.g\	dzień.	-ter.	.	.	.	2.r	.	.
8rc	.	.	.	.	.	.	.	.	.	.	.	.	.	.	.	.	.
8C\ 8G	.	8g/	8d\	.	.	8d/	.	.	.	.	.	.	.	.	.	.	.
4B/	8C\	8g/L	4f\	.	.	4c/	.	8g/]	8g\]	.	.	.	.	.	.	.	.
.	8rAA	(16a'/L	.	.	.	.	.	16a/LL	16a\LL	Pa-	Il	.	.	.	.	.	.
.	.	16b'/	.	.	.	.	.	16b/JJ	16b\JJ	.	.	.	.	.	.	.	.
8B/	8C\	16cc'/	8f\	.	.	8B/	.	16cc/LL	16cc\LL	-no-	chia-	.	.	.	.	.	.
.	.	16dd'/JJ)	.	.	.	.	.	16dd/JJ	16dd\JJ	.	.	.	.	.	.	.	.
=66	=66	=66	=66	=66	=66	=66	=66	=66	=66	=66	=66	=66	=66	=66	=66	=66	=66
[4.A/	8C\	(4ee/	[4.e\	.	.	[4.A/ [4.c	.	4ee/	4ee\	-wa-	-ror	.	.	.	2.r	.	.
.	8rAA	.	.	.	.	.	.	.	.	.	.	.	.	.	.	.	.
.	8C\	8cc/	.	.	.	.	.	8cc/	8cc\	-nie	del	.	.	.	.	.	.
8C\ 8A]	8ryy	8b/)	8e\L]	.	.	8A/] 8c]	.	4b/	4b\	jej	sol	.	.	.	.	.	.
8rc	4ryy	8raa	(16B'\L	1	.	16B/LL	.	.	.	.	.	.	.	.	.	.	.
.	.	.	16c'\	2	.	16c/JJ	.	.	.	.	.	.	.	.	.	.	.
8C/	.	8a/	16d'\	1 5	.	16d/LL	.	8a/	8a\	się	ful-	.	.	.	.	.	.
.	.	.	16e'\JJ)	2	.	16e/JJ	.	.	.	.	.	.	.	.	.	.	.
*v	*v	*	*	*	*	*	*	*	*	*	*	*	*	*	*	*	*
*	*v	*v	*	*	*	*	*	*	*	*	*	*	*	*	*	*
!!LO:LB:g=original	!	!	!	!	!	!	!	!	!	!	!	!	!	!
=67	=67	=67	=67	=67	=67	=67	=67	=67	=67	=67	=67	=67	=67	=67	=67
8C/	4f/ 4g	.	.	4f/	.	[4.g/	[4.g\	kon-	-gen-	.	.	.	2.r	.	.
8r	.	.	.	.	.	.	.	.	.	.	.	.	.	.	.
8C/	8d/ 8f 8g	.	.	8d/	.	.	.	.	.	.	.	.	.	.	.
8C/	4c/ 4f 4g	.	.	4c/	.	4g/]	4g\]	.	.	.	.	.	.	.	.
8r	.	.	.	.	.	.	.	.	.	.	.	.	.	.	.
8C/	8B/ 8f 8g	.	.	8B/	.	8g/	8f\	-czy	-te	.	.	.	.	.	.
=68	=68	=68	=68	=68	=68	=68	=68	=68	=68	=68	=68	=68	=68	=68	=68
*^	*^	*	*	*	*	*	*	*	*	*	*	*	*	*	*
*	*	*	*	*	*	*	*	*	*	*	*	*above	*	*	*	*	*
(4.A/	[2.C\	4g/	2.f\	.	.	2.c/	.	(4g/	[4.f\	zni-	stà	zni-	sta-	.	2.r	.	.
.	.	8a/	.	.	.	.	.	8a/)	.	.	.	.	.	.	.	.	.
4.A-X/	.	4b/	.	.	.	.	.	(4b/	4f\]	.	.	-ka	-per	.	.	.	.
.	.	8cc/	.	.	.	.	.	8cc/)	8f\	-ka	per	.	.	.	.	.	.
=69	=69	=69	=69	=69	=69	=69	=69	=69	=69	=69	=69	=69	=69	=69	=69	=69	=69
4.G/	4.C\]	[4.ee/	8e\L	.	.	4c/	.	[4.ee/	8e\L	smę-	ap-	smę-	ap-	.	2.r	.	.
.	.	.	8a\	.	.	.	.	.	8a\	.	.	.	.	.	.	.	.
.	.	.	8g\J	.	.	8r	.	.	8g\J	.	.	.	.	.	.	.	.
4.B/)	4.GG\	4ee/]	4.f\	.	.	4g/	.	4ee/]	4.f\	-tny	-pa-	.	.	.	.	.	.
.	.	8dd/	.	.	.	8B/ 8g	.	8dd/	.	.	.	-tny	-pa-	.	.	.	.
*	*	*v	*v	*	*	*	*	*v	*v	*	*	*	*	*	*	*	*
*	*	*	*	*	*	*	*	*	*	*	*	*below	*	*	*
=70	=70	=70	=70	=70	=70	=70	=70	=70	=70	=70	=70	=70	=70	=70	=70
8c/	2.C\	8e/ 8cc	.	.	[2.c/ [2.g	.	[2.e/ [2.cc	cień.	-rer.	.	-rer.	.	2.r	.	.
8rc	.	8r	.	.	.	.	.	.	.	.	.	.	.	.	.
8c/	.	8e/ 8cc	.	pp	.	.	.	.	.	.	.	.	.	.	.
8qd/	.	.	.	.	.	.	.	.	.	.	.	.	.	.	.
(4c^/	.	8e/ 8cc	.	.	.	.	.	.	.	.	.	.	.	.	.
.	.	8r	.	.	.	.	.	.	.	.	.	.	.	.	.
8B/)	.	8e/ 8cc	.	.	.	.	.	.	.	.	.	.	.	.	.
=71	=71	=71	=71	=71	=71	=71	=71	=71	=71	=71	=71	=71	=71	=71	=71
(4B/	[2.C\	8e/ 8cc	.	.	2.c/_ 2.g_	.	2.e/_ 2.cc_	.	.	.	.	.	2.r	.	.
.	.	8r	.	.	.	.	.	.	.	.	.	.	.	.	.
8A/)	.	8e/ 8cc	.	.	.	.	.	.	.	.	.	.	.	.	.
8qB/	.	.	.	.	.	.	.	.	.	.	.	.	.	.	.
(4A/	.	8e/ 8cc	.	.	.	.	.	.	.	.	.	.	.	.	.
.	.	8r	.	.	.	.	.	.	.	.	.	.	.	.	.
8G/)	.	8e/ 8b 8cc	.	.	.	.	.	.	.	.	.	.	.	.	.
!!LO:PB:g=original	!	!	!	!	!	!	!	!	!	!	!	!	!	!	!
=72	=72	=72	=72	=72	=72	=72	=72	=72	=72	=72	=72	=72	=72	=72	=72
(4G/	2.C\]	8e/ 8b 8cc	.	.	8c/] 8g]	.	8e/] 8cc]	.	.	.	.	.	2.r	.	.
.	.	8r	.	.	8r	.	8r	.	.	.	.	.	.	.	.
8F/)	.	8a/ 8cc	.	.	8r	.	8r	.	.	.	.	.	.	.	.
8qG/	.	.	.	.	.	.	.	.	.	.	.	.	.	.	.
(4F/	.	8a/ 8cc	.	.	4r	.	4r	.	.	.	.	.	.	.	.
.	.	8r	.	.	.	.	.	.	.	.	.	.	.	.	.
8E/)	.	8g/ 8cc	.	.	8r	.	8r	.	.	.	.	.	.	.	.
*v	*v	*	*	*	*	*	*	*	*	*	*	*	*	*	*
=73	=73	=73	=73	=73	=73	=73	=73	=73	=73	=73	=73	=73	=73	=73
*	*^	*	*	*	*	*	*	*	*	*	*	*	*	*
4.E\	8cc/	(4.g\	.	.	2.r	.	2.r	.	.	.	.	.	2.r	.	.
.	8raa	.	.	.	.	.	.	.	.	.	.	.	.	.	.
.	8cc/	.	.	.	.	.	.	.	.	.	.	.	.	.	.
.	8qdd/	.	.	.	.	.	.	.	.	.	.	.	.	.	.
4.EE/ 4.E	4cc/	4e^\) 4g#X	.	.	.	.	.	.	.	.	.	.	.	.	.
.	8d/ 8gn 8b	8ryy	.	.	.	.	.	.	.	.	.	.	.	.	.
*	*v	*v	*	*	*	*	*	*	*	*	*	*	*	*	*
=74	=74	=74	=74	=74	=74	=74	=74	=74	=74	=74	=74	=74	=74	=74
!	!LO:TX:b:t=V. I. e Fl.	!	!	!	!	!	!	!	!	!	!	!	!	!
8AA/	16c'/LL 16a	.	.	4c/	.	4e/ 4a	Ty	Te,	.	.	.	2.r	.	.
.	16e'/	.	.	.	.	.	.	.	.	.	.	.	.	.
8r	16a'/	.	.	.	.	.	.	.	.	.	.	.	.	.
.	16b'/	.	.	.	.	.	.	.	.	.	.	.	.	.
8A\ 8c 8e	16cc'/	.	.	8c/	.	8e/ 8a	w Ka-	del	.	.	.	.	.	.
.	16dd'/JJ	.	.	.	.	.	.	.	.	.	.	.	.	.
8A\ 8c 8e	16ee'\LL	.	.	4c/	.	4e/ 4a	-pła-	tem-	.	.	.	.	.	.
.	16ff'\	.	.	.	.	.	.	.	.	.	.	.	.	.
8r	16ee'\	.	.	.	.	.	.	.	.	.	.	.	.	.
.	16cc'\	.	.	.	.	.	.	.	.	.	.	.	.	.
8E\ 8B 8e	16b'\	.	.	8B/	.	8e/ 8g#X	-nek	-pio	.	.	.	.	.	.
.	16dd'\JJ	4	.	.	.	.	.	.	.	.	.	.	.	.
=75	=75	=75	=75	=75	=75	=75	=75	=75	=75	=75	=75	=75	=75	=75
8A\ 8e	(16cc\LL	.	.	4c/	.	4e/ 4a	gro-	fra	.	.	.	2.r	.	.
.	16b\)	.	.	.	.	.	.	.	.	.	.	.	.	.
8r	16a'\	.	.	.	.	.	.	.	.	.	.	.	.	.
.	16b'\	.	.	.	.	.	.	.	.	.	.	.	.	.
8A\ 8e	16cc'\	.	.	8c/	.	8e/ 8a	-nie	le an-	.	.	.	.	.	.
.	16dd'\JJ	1	.	.	.	.	.	.	.	.	.	.	.	.
8A\ 8c 8e	(16ee\LL	.	.	4c/	.	4e/ 4a	naj-	-cel-	.	.	.	.	.	.
.	16aa\	.	.	.	.	.	.	.	.	.	.	.	.	.
8r	16ee\)	.	.	.	.	.	.	.	.	.	.	.	.	.
.	16ff\	.	.	.	.	.	.	.	.	.	.	.	.	.
8E\ 8B 8e	16ee'\	.	.	8B/	.	8e/ 8g#X	-pię-	-le	.	.	.	.	.	.
.	16dd'\JJ	.	.	.	.	.	.	.	.	.	.	.	.	.
!!LO:LB:g=original	!	!	!	!	!	!	!	!	!	!	!	!	!	!
=76	=76	=76	=76	=76	=76	=76	=76	=76	=76	=76	=76	=76	=76	=76
*	*	*	*	*	*	*^	*	*	*	*	*	*	*	*
8A\ 8e	(16cc\LL	3	.	4c/	.	4e/ 4a	4.ryy	-kniej-	in-	.	.	.	2.r	.	.
.	16b\)	2	.	.	.	.	.	.	.	.	.	.	.	.	.
8r	16cc'\	11	.	.	.	.	.	.	.	.	.	.	.	.	.
.	16dd'\	.	.	.	.	.	.	.	.	.	.	.	.	.	.
*clefG2	*	*	*	*	*	*	*	*	*	*	*	*	*	*	*
8c/ 8e	16ee'\	.	.	8c/	.	8c/ 8a	.	-sza	-cli-	.	.	.	.	.	.
.	16ff'\JJ	.	.	.	.	.	.	.	.	.	.	.	.	.	.
8B'/L 8d' 8f'	(16gg\LL	.	.	4d/	.	8b/L	8d\L	In-	-ta	.	.	.	.	.	.
.	16ff\)	.	.	.	.	.	.	.	.	.	.	.	.	.	.
8g'/	16ee'\	.	.	.	.	8gn/J	8g\J	.	.	.	.	.	.	.	.
.	16dd'\	.	.	.	.	.	.	.	.	.	.	.	.	.	.
8G'/J 8d' 8f'	16cc'\	.	.	8g/	.	8f/ 8b	8f\	-dyi	bel-	.	.	.	.	.	.
.	16b'\JJ	.	.	.	.	.	.	.	.	.	.	.	.	.	.
*	*	*	*	*	*	*v	*v	*	*	*	*	*	*	*	*
=77	=77	=77	=77	=77	=77	=77	=77	=77	=77	=77	=77	=77	=77	=77
8c/ 8e	16cc'\LL	1	.	[4.c/ [4.g	.	[4.e/ [4.cc	cór.	-tà	.	.	.	2.r	.	.
.	16dd'\	.	.	.	.	.	.	.	.	.	.	.	.	.
8r	16ee'\	1	.	.	.	.	.	.	.	.	.	.	.	.
.	16ff'\	.	.	.	.	.	.	.	.	.	.	.	.	.
8c/ 8e 8g	16gg'\	.	.	.	.	.	.	.	.	.	.	.	.	.
.	16aa'\JJ	.	.	.	.	.	.	.	.	.	.	.	.	.
8c/ 8e 8g	16gg'\LL	.	.	4c/] 4g]	.	4e/] 4cc]	.	.	.	.	.	.	.	.
.	16aa'\	1	.	.	.	.	.	.	.	.	.	.	.	.
8r	16bb'\	.	.	.	.	.	.	.	.	.	.	.	.	.
.	16ccc'\	.	.	.	.	.	.	.	.	.	.	.	.	.
8c/ 8e 8g	16ddd'\	.	.	8r	.	8r	.	.	.	.	.	.	.	.
.	16eee'\JJ	.	.	.	.	.	.	.	.	.	.	.	.	.
=78	=78	=78	=78	=78	=78	=78	=78	=78	=78	=78	=78	=78	=78	=78
8B/ 8d 8g	(16ddd\LL	.	.	4B/	.	4g\ 4dd	Wi-	pria	.	.	.	2.r	.	.
.	16ccc\)	.	.	.	.	.	.	.	.	.	.	.	.	.
8r	16bb'\	.	.	.	.	.	.	.	.	.	.	.	.	.
.	16aa'\	.	.	.	.	.	.	.	.	.	.	.	.	.
8B/ 8d 8g	16gg'\	.	.	8B/ 8d	.	8g\ 8dd	-taj	che	.	.	.	.	.	.
.	16aa'\JJ	.	.	.	.	.	.	.	.	.	.	.	.	.
((4B^>/ 4d 4g	16gg'\LL	.	.	4B/ 4d	.	4g\ 4dd	blask	spen-	.	.	.	.	.	.
.	16ff#X'\	3	.	.	.	.	.	.	.	.	.	.	.	.
.	16ee'\	.	.	.	.	.	.	.	.	.	.	.	.	.
.	16dd'\	.	.	.	.	.	.	.	.	.	.	.	.	.
8A/)) 8d 8f#X	16ddd'\	.	.	8A/ 8d	.	8f#X/ 8cc	co	-gan-	.	.	.	.	.	.
.	16ccc'\JJ	.	.	.	.	.	.	.	.	.	.	.	.	.
!!LO:LB:g=original	!	!	!	!	!	!	!	!	!	!	!	!	!	!
=79	=79	=79	=79	=79	=79	=79	=79	=79	=79	=79	=79	=79	=79	=79
8A/ 8d 8f#X	(16ccc\LL	.	.	4A/ 4c	.	4f#X/ 4ee	zło-	-si	.	.	.	2.r	.	.
.	16aa\)	.	.	.	.	.	.	.	.	.	.	.	.	.
8r	16bb'\	.	.	.	.	.	.	.	.	.	.	.	.	.
.	16ccc'\	.	.	.	.	.	.	.	.	.	.	.	.	.
8A/ 8c 8f#	16ddd'\	.	.	8d/	.	8f#/ 8dd	-tem	le	.	.	.	.	.	.
.	16eee'\JJ	.	.	.	.	.	.	.	.	.	.	.	.	.
4A-X^>/ 4c 4fn	(16fff\LL	.	.	4d/	.	4fn/ 4dd	pło-	stel-	.	.	.	.	.	.
.	16eee\)	.	.	.	.	.	.	.	.	.	.	.	.	.
.	16ddd'\	.	.	.	.	.	.	.	.	.	.	.	.	.
.	16ccc'\	.	.	.	.	.	.	.	.	.	.	.	.	.
8A-/ 8c 8f	16bb'\	.	.	8d/	.	8f/ 8cc	-nie	-le	.	.	.	.	.	.
.	16ccc'\JJ	.	.	.	.	.	.	.	.	.	.	.	.	.
=80	=80	=80	=80	=80	=80	=80	=80	=80	=80	=80	=80	=80	=80	=80
*	*	*	*	*	*	*^	*	*	*	*	*	*	*	*
8G/ 8d 8f	(16ddd\LL	.	.	8d/L	.	8b/L	4f\	na	l’a-	.	.	.	2.r	.	.
.	16ccc\)	.	.	.	.	.	.	.	.	.	.	.	.	.	.
8r	16bb'\	.	.	8c/J	.	8a/J	.	.	.	.	.	.	.	.	.
.	16aa'\	.	.	.	.	.	.	.	.	.	.	.	.	.	.
8G/ 8B 8d	16gg'\	.	.	8B/	.	8g/	8f\	wierz-	-stro in-	.	.	.	.	.	.
.	16ff'\JJ	.	.	.	.	.	.	.	.	.	.	.	.	.	.
8G/ 8c 8f	16ee'\LL	.	.	4A/ 4c	.	4cc/	4f\	-choł-	-do-	.	.	.	.	.	.
.	16ff'\	.	.	.	.	.	.	.	.	.	.	.	.	.	.
8r	16gg'\	.	.	.	.	.	.	.	.	.	.	.	.	.	.
.	16ff'\	.	.	.	.	.	.	.	.	.	.	.	.	.	.
8G/ 8B 8f	16ee'\	.	.	8B/ 8g	.	8dd/	8f\	-kach	-re-	.	.	.	.	.	.
.	16dd'\JJ	.	.	.	.	.	.	.	.	.	.	.	.	.	.
=81	=81	=81	=81	=81	=81	=81	=81	=81	=81	=81	=81	=81	=81	=81	=81
8c/ 8e	(16cc\LL	.	.	[4.c/ [4.g	.	4ee/	4e\	gór.	-rà.	.	.	.	2.r	.	.
.	16g\	.	.	.	.	.	.	.	.	.	.	.	.	.	.
8r	16cc\)	.	.	.	.	.	.	.	.	.	.	.	.	.	.
.	16dd\	.	.	.	.	.	.	.	.	.	.	.	.	.	.
*	*	*	*	*	*	*	*	*	*	*above	*	*	*	*	*
8c/ 8e 8g	16ee'\	.	.	.	.	8g/	8rc	.	.	Wznieś	Tu il	.	.	.	.
.	16ff'\JJ	.	.	.	.	.	.	.	.	.	.	.	.	.	.
8c/ 8e 8g	(16gg\LL	.	.	4c/] 4g]	.	4cc/	4rc	.	.	two-	pri-	.	.	.	.
.	16ccc\)	.	.	.	.	.	.	.	.	.	.	.	.	.	.
8r	16ee'\	.	.	.	.	.	.	.	.	.	.	.	.	.	.
.	16ff'\	.	.	.	.	.	.	.	.	.	.	.	.	.	.
8c/ 8e 8g	16gg'\	.	.	8r	.	8ee/	8rc	.	.	-je	-mo	.	.	.	.
.	16aa'\JJ	.	.	.	.	.	.	.	.	.	.	.	.	.	.
!!LO:LB:g=original	!	!	!	!	!	!	!	!	!	!	!	!	!	!	!
=82	=82	=82	=82	=82	=82	=82	=82	=82	=82	=82	=82	=82	=82	=82	=82
8c/ 8e 8g	(16gg\LL	.	.	8r	.	2.gg/	8rf	.	.	mo-	rag-	.	2.r	.	.
.	16aa\)	.	.	.	.	.	.	.	.	.	.	.	.	.	.
8r	16gg'\	.	.	8r	.	.	8rf	.	.	.	.	.	.	.	.
.	16ee'\	.	.	.	.	.	.	.	.	.	.	.	.	.	.
8c/ 8e 8g	16cc'\	.	.	8g/	.	.	8ee\	Wznieś	Tu il	.	.	.	.	.	.
.	16ee'\JJ	.	.	.	.	.	.	.	.	.	.	.	.	.	.
8c/ 8d 8f	16g'\LL	.	.	4g/	.	.	4ee\	two-	pri-	.	.	.	.	.	.
.	16a'\	.	.	.	.	.	.	.	.	.	.	.	.	.	.
8r	16b'\	.	.	.	.	.	.	.	.	.	.	.	.	.	.
.	16cc'\	.	.	.	.	.	.	.	.	.	.	.	.	.	.
8c/ 8d 8f	16dd'\	.	.	8f/	.	.	8dd\	-je	-mo	.	.	.	.	.	.
.	16b'\JJ	.	.	.	.	.	.	.	.	.	.	.	.	.	.
=83	=83	=83	=83	=83	=83	=83	=83	=83	=83	=83	=83	=83	=83	=83	=83
8c/ 8e	16cc'\LL	.	.	4.e/	.	4gg/	(4cc\	mo-	rag-	-dły	-gio	.	2.r	.	.
.	16dd'\	.	.	.	.	.	.	.	.	.	.	.	.	.	.
8r	16ee'\	.	.	.	.	.	.	.	.	.	.	.	.	.	.
.	16ff'\	.	.	.	.	.	.	.	.	.	.	.	.	.	.
8c/ 8e 8g	16gg'\	.	.	.	.	8g/	8g\)	.	.	śród	sa-	.	.	.	.
.	16ff#X'\JJ	3	.	.	.	.	.	.	.	.	.	.	.	.	.
8c/ 8e 8g	(16aa^\LL	.	.	4e/	.	4cc/	4cc\	-dły	-gio	te-	-lu-	.	.	.	.
.	16gg\)	.	.	.	.	.	.	.	.	.	.	.	.	.	.
8r	16ffn'\	.	.	.	.	.	.	.	.	.	.	.	.	.	.
.	16ee'\	.	.	.	.	.	.	.	.	.	.	.	.	.	.
8c/ 8e 8g	16dd'\	.	.	8cc\	.	8ee/	8g\	śród	sa-	-go	-te-	.	.	.	.
.	16cc'\JJ	2	.	.	.	.	.	.	.	.	.	.	.	.	.
=84	=84	=84	=84	=84	=84	=84	=84	=84	=84	=84	=84	=84	=84	=84	=84
8c/ 8e 8g	(16gg^\LL	.	.	4g/	.	[2.gg/	4g\	te-	-lu-	ga-	-rai	.	2.r	.	.
.	16ff\)	.	.	.	.	.	.	.	.	.	.	.	.	.	.
8r	16ee'\	.	.	.	.	.	.	.	.	.	.	.	.	.	.
.	16dd'\	.	.	.	.	.	.	.	.	.	.	.	.	.	.
8c/ 8e 8g	16cc'\	.	.	8g/	.	.	8ee\	-go	-te-	.	.	.	.	.	.
.	16dd'\JJ	.	.	.	.	.	.	.	.	.	.	.	.	.	.
8c/ 8e 8g	16ee'\LL	.	.	4g/	.	.	4ee\	ga-	-rai	.	.	.	.	.	.
.	16dd'\	.	.	.	.	.	.	.	.	.	.	.	.	.	.
8r	16cc'\	.	.	.	.	.	.	.	.	.	.	.	.	.	.
.	16b'\	.	.	.	.	.	.	.	.	.	.	.	.	.	.
8c/ 8d 8f	16a'\	.	.	8f/	.	.	8dd\	-ju	del	.	.	.	.	.	.
.	16g'\JJ	.	.	.	.	.	.	.	.	.	.	.	.	.	.
!!LO:LB:g=original	!	!	!	!	!	!	!	!	!	!	!	!	!	!	!
=85	=85	=85	=85	=85	=85	=85	=85	=85	=85	=85	=85	=85	=85	=85	=85
8c/ 8e	(16ccc^\LL	.	.	4e/	.	4gg/]	4cc\	drzew	sol,	.	.	.	2.r	.	.
.	16bb\	.	.	.	.	.	.	.	.	.	.	.	.	.	.
8r	16aa\)	.	.	.	.	.	.	.	.	.	.	.	.	.	.
.	16gg'\	.	.	.	.	.	.	.	.	.	.	.	.	.	.
(8B/ 8c 8e	16ff#X'\	.	.	8c/	.	8ee/	8e\	By	vol-	-ju	del	.	.	.	.
.	16gg'\JJ	.	.	.	.	.	.	.	.	.	.	.	.	.	.
4A/ 4c 4d 4f	16aa'\LL	.	.	4d/	.	4f/ 4cc	4.rcyy	nam	gen-	drzew	sol,	.	.	.	.
.	16gg'\	.	.	.	.	.	.	.	.	.	.	.	.	.	.
.	16ffn'\	.	.	.	.	.	.	.	.	.	.	.	.	.	.
.	16ee'\	.	.	.	.	.	.	.	.	.	.	.	.	.	.
.	8qee/	.	.	.	.	.	.	.	.	.	.	.	.	.	.
8G/ 8c 8e 8g	16dd'\	.	.	8e/	.	8g/ 8cc	.	jak	-do a	jak	vol-	.	.	.	.
.	16cc'\JJ	.	.	.	.	.	.	.	.	.	.	.	.	.	.
*	*	*	*	*	*	*v	*v	*	*	*	*	*	*	*	*
=86	=86	=86	=86	=86	=86	=86	=86	=86	=86	=86	=86	=86	=86	=86
4F/) 4A	(16ccc^\LL	.	.	4f/	.	4a\ 4cc	zaw-	-lui	.	-gen-	.	2.r	.	.
.	16bb\	.	.	.	.	.	.	.	.	.	.	.	.	.
.	16ddd\)	.	.	.	.	.	.	.	.	.	.	.	.	.
.	16ccc'\	.	.	.	.	.	.	.	.	.	.	.	.	.
8f/	16bb'\	.	.	8c/	.	8f/ 8a	-sze	l’u-	.	-do a	.	.	.	.
.	16aa'\JJ	.	.	.	.	.	.	.	.	.	.	.	.	.
((4G/ 4d	(16gg\LL	.	.	4B/	.	4d/ 4g	tu	-mi-	.	lui	.	.	.	.
.	16ddd\	.	.	.	.	.	.	.	.	.	.	.	.	.
.	16ccc\)	.	.	.	.	.	.	.	.	.	.	.	.	.
.	16bb'\	.	.	.	.	.	.	.	.	.	.	.	.	.
8A/)) 8d 8f	16aa'\	.	.	8B/	.	8d/ 8f	przy-	-le o	.	l’o-	.	.	.	.
.	16bb'\JJ	.	.	.	.	.	.	.	.	.	.	.	.	.
=87	=87	=87	=87	=87	=87	=87	=87	=87	=87	=87	=87	=87	=87	=87
*^	*	*	*	*	*	*^	*	*	*	*	*	*	*	*
(4e/	4.A\ 4.c	(16ccc\LL	.	.	4.c/	.	(4e/	4.e\	-wio-	mag-	.	-mag-	.	2.r	.	.
.	.	16gg\)	.	.	.	.	.	.	.	.	.	.	.	.	.	.
.	.	16ff'\	.	.	.	.	.	.	.	.	.	.	.	.	.	.
.	.	16ee'\	.	.	.	.	.	.	.	.	.	.	.	.	.	.
8a/	.	16dd'\	.	.	.	.	8a/)	.	.	.	.	.	.	.	.	.
.	.	16cc'\JJ	.	.	.	.	.	.	.	.	.	.	.	.	.	.
4g/)	4.B\ 4.d	(16dd\LL	.	.	8g/	.	8g/	8g\	-dły	-gio	.	-gio	.	.	.	.
.	.	16aa\)	.	.	.	.	.	.	.	.	.	.	.	.	.	.
.	.	16gg'\	.	.	8r	.	8raa	8rc	.	.	.	.	.	.	.	.
.	.	16ee'\	.	.	.	.	.	.	.	.	.	.	.	.	.	.
8g/	.	16ff'\	.	.	8f/	.	8g/	8g\	zdrój	del	.	.	.	.	.	.
.	.	16dd'\JJ	2	.	.	.	.	.	.	.	.	.	.	.	.	.
*	*	*	*	*	*	*	*	*	*	*	*	*below	*	*	*	*
*v	*v	*	*	*	*	*	*	*	*	*	*	*	*	*	*	*
!!LO:LB:g=original	!	!	!	!	!	!	!	!	!	!	!	!	!	!	!
=88	=88	=88	=88	=88	=88	=88	=88	=88	=88	=88	=88	=88	=88	=88	=88
4c/ 4e 4g	(16ee^<\LL	1	.	4e/	.	4g/	4g\	łask	suo	.	.	.	2.r	.	.
.	16eee\)	.	.	.	.	.	.	.	.	.	.	.	.	.	.
.	16ddd'\	.	.	.	.	.	.	.	.	.	.	.	.	.	.
.	16ccc'\	.	.	.	.	.	.	.	.	.	.	.	.	.	.
8c/ 8e 8cc	16bb'\	.	.	8e/	.	8g/ 8cc	2ryy	z nie-	de-	.	.	.	.	.	.
.	16aa'\JJ	.	.	.	.	.	.	.	.	.	.	.	.	.	.
4g\ 4b 4dd	(16gg^<\LL	.	.	4g/	.	4b\ 4dd	.	-biań-	-vo-	.	.	.	.	.	.
.	16fff\)	.	.	.	.	.	.	.	.	.	.	.	.	.	.
.	16eee'\	.	.	.	.	.	.	.	.	.	.	.	.	.	.
.	16ddd'\	.	.	.	.	.	.	.	.	.	.	.	.	.	.
8g\ 8dd 8ff	16ccc'\	.	.	8g/	.	8dd\ 8ff	.	-skich	-to	.	.	.	.	.	.
.	16bb'\JJ	.	.	.	.	.	.	.	.	.	.	.	.	.	.
*	*	*	*	*	*	*v	*v	*	*	*	*	*	*	*	*
=89	=89	=89	=89	=89	=89	=89	=89	=89	=89	=89	=89	=89	=89	=89
8cc\ 8ee	(16ccc^\LL	.	.	2.c/ 2.g	.	2.cc\ 2.ee	stref.	stuol.	.	.	.	2.r	.	.
.	16bb\)	.	.	.	.	.	.	.	.	.	.	.	.	.
8r	16aa'\	.	.	.	.	.	.	.	.	.	.	.	.	.
.	16gg'\	.	.	.	.	.	.	.	.	.	.	.	.	.
*clefF4	*	*	*	*	*	*	*	*	*	*	*	*	*	*
8C\ 8E 8G	16ff#X'\	.	.	.	.	.	.	.	.	.	.	.	.	.
.	16gg'\JJ	.	.	.	.	.	.	.	.	.	.	.	.	.
8C\ 8E 8G	(16aa^\LL	.	.	.	.	.	.	.	.	.	.	.	.	.
.	16gg\)	.	.	.	.	.	.	.	.	.	.	.	.	.
8r	16ffn'\	.	.	.	.	.	.	.	.	.	.	.	.	.
.	16ee'\	.	.	.	.	.	.	.	.	.	.	.	.	.
8C\ 8E 8G	(16dd#X'\	.	.	.	.	.	.	.	.	.	.	.	.	.
.	16ee'\JJ)	.	.	.	.	.	.	.	.	.	.	.	.	.
=90	=90	=90	=90	=90	=90	=90	=90	=90	=90	=90	=90	=90	=90	=90
*	*	*	*	*	*	*^	*	*	*	*	*	*	*	*
8C\ 8D 8F 8G	(16gg^\LL	.	.	4g/	.	4g/	4g\	Wznieś	Te	.	.	.	2.r	.	.
.	16ff\)	.	.	.	.	.	.	.	.	.	.	.	.	.	.
8r	16ee'\	.	.	.	.	.	.	.	.	.	.	.	.	.	.
.	16dd'\	.	.	.	.	.	.	.	.	.	.	.	.	.	.
8C\ 8D 8F 8G	16cc'\	.	.	8d/	.	8g/ 8dd	4.ryy	czy-	del	.	.	.	.	.	.
.	16b'\JJ	.	.	.	.	.	.	.	.	.	.	.	.	.	.
8C\ 8D 8F 8G	(16a^\LL	.	.	4d/	.	4g/ 4dd	.	-ste-	tem-	.	.	.	.	.	.
.	16g\)	.	.	.	.	.	.	.	.	.	.	.	.	.	.
8r	(16bb\	.	.	.	.	.	.	.	.	.	.	.	.	.	.
.	16aa\)	.	.	.	.	.	.	.	.	.	.	.	.	.	.
8C\ 8D 8F 8G	16gg'\	.	.	8g/	.	8g/	8g\	-go	-pio	.	.	.	.	.	.
.	16ff'\JJ	.	.	.	.	.	.	.	.	.	.	.	.	.	.
!!LO:PB:g=original	!	!	!	!	!	!	!	!	!	!	!	!	!	!	!
=91	=91	=91	=91	=91	=91	=91	=91	=91	=91	=91	=91	=91	=91	=91	=91
8C\ 8D 8F 8G	(16ee^\LL	.	.	4g/	.	4g/	4g\	du-	fra	.	.	.	2.r	.	.
.	16dd\)	.	.	.	.	.	.	.	.	.	.	.	.	.	.
8r	16cc'\	.	.	.	.	.	.	.	.	.	.	.	.	.	.
.	16b'\	.	.	.	.	.	.	.	.	.	.	.	.	.	.
8C\ 8D 8F 8G	(16ddd^\	.	.	8d/	.	8g/ 8dd	4.ryy	-cha	le an-	.	.	.	.	.	.
.	16ccc\JJ)	.	.	.	.	.	.	.	.	.	.	.	.	.	.
8C\ 8D 8F 8G	16bb'\LL	.	.	4d/	.	4g/ 4dd	.	mo-	-cel-	.	.	.	.	.	.
.	16aa'\	.	.	.	.	.	.	.	.	.	.	.	.	.	.
8r	16gg'\	.	.	.	.	.	.	.	.	.	.	.	.	.	.
.	16ff'\	.	.	.	.	.	.	.	.	.	.	.	.	.	.
8C\ 8D 8F 8G	16ee'\	.	.	8g/	.	8g/	8g\	-dły	-le	.	.	.	.	.	.
.	16dd'\JJ	.	.	.	.	.	.	.	.	.	.	.	.	.	.
=92	=92	=92	=92	=92	=92	=92	=92	=92	=92	=92	=92	=92	=92	=92	=92
8C\ 8E 8G	16cc'\LL	.	.	4g/	.	4ee/	4ee\	wśród	in-	.	.	.	2.r	.	.
.	16dd'\	.	.	.	.	.	.	.	.	.	.	.	.	.	.
8r	16ee'\	.	.	.	.	.	.	.	.	.	.	.	.	.	.
.	16ff'\	.	.	.	.	.	.	.	.	.	.	.	.	.	.
8C\ 8E 8G	16gg'\	.	.	8r	.	8cc/	8cc\	świę-	-cli-	.	.	.	.	.	.
.	16aa'\JJ	.	.	.	.	.	.	.	.	.	.	.	.	.	.
8C\ 8E 8G	16gg'\LL	.	.	4r	.	4b/	4b\	-co-	-ta	.	.	.	.	.	.
.	16aa'\	.	.	.	.	.	.	.	.	.	.	.	.	.	.
8r	16bb'\	.	.	.	.	.	.	.	.	.	.	.	.	.	.
.	16ccc'\	.	.	.	.	.	.	.	.	.	.	.	.	.	.
8C\ 8E 8G	16ddd'\	.	.	8r	.	8a/	8a\	-nych	bel-	.	.	.	.	.	.
.	16eee'\JJ	.	.	.	.	.	.	.	.	.	.	.	.	.	.
=93	=93	=93	=93	=93	=93	=93	=93	=93	=93	=93	=93	=93	=93	=93	=93
8C\ 8E 8F	16ddd'\LL	.	.	4f/	.	[4.g/	[4.g\	drzew	-tà	.	.	.	2.r	.	.
.	16aa'\	.	.	.	.	.	.	.	.	.	.	.	.	.	.
8r	16ddd'\	.	.	.	.	.	.	.	.	.	.	.	.	.	.
.	16ccc'\	.	.	.	.	.	.	.	.	.	.	.	.	.	.
8C\ 8F 8G	16bb'\	.	.	8d/	.	.	.	.	.	.	.	.	.	.	.
.	16aa'\JJ	.	.	.	.	.	.	.	.	.	.	.	.	.	.
4C\ 4F 4G	16aa'\LL	.	.	4c/	.	8g/]	8g\]	.	.	.	.	.	.	.	.
.	16gg'\	.	.	.	.	.	.	.	.	.	.	.	.	.	.
.	16aa'\	.	.	.	.	16a/LL	16a\LL	By	pria	.	.	.	.	.	.
.	16gg'\	.	.	.	.	16b/JJ	16b\JJ	.	.	.	.	.	.	.	.
8C\ 8F 8G 8B	16ff'\	.	.	8B/	.	16cc/LL	16cc\LL	jak	che	.	.	.	.	.	.
.	16dd'\JJ	.	.	.	.	16dd/JJ	16dd\JJ	.	.	.	.	.	.	.	.
!!LO:LB:g=original	!	!	!	!	!	!	!	!	!	!	!	!	!	!	!
=94	=94	=94	=94	=94	=94	=94	=94	=94	=94	=94	=94	=94	=94	=94	=94
8C\ 8E 8A	16cc'\LL	.	.	[4.A/	.	4ee/	4ee\	za-	spen-	.	.	.	2.r	.	.
.	16dd'\	.	.	.	.	.	.	.	.	.	.	.	.	.	.
8r	16ee'\	.	.	.	.	.	.	.	.	.	.	.	.	.	.
.	16ff'\	.	.	.	.	.	.	.	.	.	.	.	.	.	.
8C\ 8E 8A	16gg'\	.	.	.	.	8cc/	8cc\	-wsze	-gan-	.	.	.	.	.	.
.	16aa'\JJ	.	.	.	.	.	.	.	.	.	.	.	.	.	.
8C\ 8E 8A	16gg'\LL	1	.	8A/]	.	4b/	4b\	nam	-si	.	.	.	.	.	.
.	16aa'\	.	.	.	.	.	.	.	.	.	.	.	.	.	.
8r	16bb'\	.	.	16B/LL	.	.	.	.	.	.	.	.	.	.	.
.	16ccc'\	.	.	16c/JJ	.	.	.	.	.	.	.	.	.	.	.
8C\ 8E 8A	16ddd'\	.	.	16d/LL	.	8a/	8a\	przy-	le	.	.	.	.	.	.
.	16eee'\JJ	.	.	16e/JJ	.	.	.	.	.	.	.	.	.	.	.
=95	=95	=95	=95	=95	=95	=95	=95	=95	=95	=95	=95	=95	=95	=95	=95
*^	*	*	*	*	*	*	*	*	*	*	*	*	*	*	*
8C/ 8D 8F 8A	4ryy	16fff'\LL	.	.	4f/	.	[4.g/	[4.g\	-wio-	stel-	.	.	.	2.r	.	.
.	.	16eee'\	.	.	.	.	.	.	.	.	.	.	.	.	.	.
8rc	.	16ddd'\	.	.	.	.	.	.	.	.	.	.	.	.	.	.
.	.	16ccc'\	.	.	.	.	.	.	.	.	.	.	.	.	.	.
8d/	8C\ 8A	16bb'\	.	.	8d/	.	.	.	.	.	.	.	.	.	.	.
.	.	16aa'\JJ	.	.	.	.	.	.	.	.	.	.	.	.	.	.
4c/	8C\ 8G	16bb'\LL	.	.	4c/	.	4g/]	4g\]	.	.	.	.	.	.	.	.
.	.	16aa'\	.	.	.	.	.	.	.	.	.	.	.	.	.	.
.	8rEE	16gg'\	.	.	.	.	.	.	.	.	.	.	.	.	.	.
.	.	16ff'\	.	.	.	.	.	.	.	.	.	.	.	.	.	.
8B/	8G\	16ee'\	.	.	8B/	.	8g/	8f\	-dły	-le	.	.	.	.	.	.
.	.	16dd'\JJ	.	.	.	.	.	.	.	.	.	.	.	.	.	.
=96	=96	=96	=96	=96	=96	=96	=96	=96	=96	=96	=96	=96	=96	=96	=96	=96
2.c/ 2.f	4.A\	16cc'\LL	.	.	[2.c/	.	4g/	[4.f\	ła-	l’a-	zdro-	l’a-	.	2.r	.	.
.	.	16dd'\	.	.	.	.	.	.	.	.	.	.	.	.	.	.
.	.	16cc'\	.	.	.	.	.	.	.	.	.	.	.	.	.	.
.	.	16dd'\	.	.	.	.	.	.	.	.	.	.	.	.	.	.
.	.	16cc'\	.	.	.	.	8a/	.	.	.	-je	-stro	.	.	.	.
.	.	16dd'\JJ	.	.	.	.	.	.	.	.	.	.	.	.	.	.
.	4.A-X\	16ee'\LL	1	.	.	.	4b/	4f\]	.	.	łask	d’or	.	.	.	.
.	.	16ff'\	.	.	.	.	.	.	.	.	.	.	.	.	.	.
.	.	16ee'\	.	.	.	.	.	.	.	.	.	.	.	.	.	.
.	.	16ff'\	.	.	.	.	.	.	.	.	.	.	.	.	.	.
.	.	16ee'\	.	.	.	.	8cc/	8f\	-ski	-stro ir-	z nie-	ir-	.	.	.	.
.	.	16ff'\JJ	.	.	.	.	.	.	.	.	.	.	.	.	.	.
!!LO:LB:g=original	!	!	!	!	!	!	!	!	!	!	!	!	!	!	!	!
=97	=97	=97	=97	=97	=97	=97	=97	=97	=97	=97	=97	=97	=97	=97	=97	=97
(>8e/L	4.G\ 4.c	(16gg\LL	1	.	4.c/]	.	[4.ee/	8e\L	z nie-	-ra-	-biań-	-ra-	.	2.r	.	.
.	.	16eee\)	.	.	.	.	.	.	.	.	.	.	.	.	.	.
8a/	.	(16ee\	.	.	.	.	.	8a\	.	.	.	.	.	.	.	.
.	.	16gg\)	.	.	.	.	.	.	.	.	.	.	.	.	.	.
8g/J)	.	16ff'\	.	.	.	.	.	8g\J	.	.	.	.	.	.	.	.
.	.	16ee'\JJ	.	.	.	.	.	.	.	.	.	.	.	.	.	.
4.f/	([4G\) 4B	16dd'\LL	.	.	4.g/	.	4ee/]	4.f\	-ba	-die-	.	.	.	.	.	.
.	.	16ee'\	.	.	.	.	.	.	.	.	.	.	.	.	.	.
.	.	16ff'\	.	.	.	.	.	.	.	.	.	.	.	.	.	.
.	.	16gg'\	.	.	.	.	.	.	.	.	.	.	.	.	.	.
.	8G\]) 8d	16aa'\	.	.	.	.	8dd/	.	.	.	-skich	-die-	.	.	.	.
.	.	16bb'\JJ	.	.	.	.	.	.	.	.	.	.	.	.	.	.
*	*	*	*	*	*	*	*v	*v	*	*	*	*	*	*	*	*
=98	=98	=98	=98	=98	=98	=98	=98	=98	=98	=98	=98	=98	=98	=98	=98
(4G/	4.C\ 4.E	16ccc'\LL	.	<	[2.c/ [2.g	.	[2.e/ [2.cc	stref.	-rà	.	-rà	.	2.r	.	.
.	.	16bb'\	.	.	.	.	.	.	.	.	.	.	.	.	.
.	.	16ccc'\	.	.	.	.	.	.	.	.	.	.	.	.	.
.	.	16bb'\	.	.	.	.	.	.	.	.	.	.	.	.	.
8e/)	.	16ccc'\	.	.	.	.	.	.	.	.	.	.	.	.	.
.	.	16bb'\JJ	.	.	.	.	.	.	.	.	.	.	.	.	.
(>4e/	8ryy	16ccc'\LL	.	.	.	.	.	.	.	.	.	.	.	.	.
.	.	16bb'\	.	.	.	.	.	.	.	.	.	.	.	.	.
.	4ryy	16ccc'\	.	.	.	.	.	.	.	.	.	.	.	.	.
.	.	16bb'\	.	.	.	.	.	.	.	.	.	.	.	.	.
8g/)	.	16ddd'\	.	.	.	.	.	.	.	.	.	.	.	.	.
.	.	16ccc'\JJ	.	[	.	.	.	.	.	.	.	.	.	.	.
*v	*v	*	*	*	*	*	*	*	*	*	*	*	*	*	*
=99	=99	=99	=99	=99	=99	=99	=99	=99	=99	=99	=99	=99	=99	=99
8C\ 8E 8G 8c	(16eee^\LL	.	.	2.c/_ 2.g_	.	2.e/_ 2.cc_	.	.	.	.	.	2.r	.	.
.	16ddd\)	.	.	.	.	.	.	.	.	.	.	.	.	.
8r	16ccc'\	.	.	.	.	.	.	.	.	.	.	.	.	.
.	16bb'\	.	.	.	.	.	.	.	.	.	.	.	.	.
8C\ 8E 8G 8c	16aa'\	.	.	.	.	.	.	.	.	.	.	.	.	.
.	16gg'\JJ	2	.	.	.	.	.	.	.	.	.	.	.	.
8C\ 8E 8G 8c	(16ccc^\LL	.	.	.	.	.	.	.	.	.	.	.	.	.
.	16aa\)	3	.	.	.	.	.	.	.	.	.	.	.	.
8r	16gg'\	.	.	.	.	.	.	.	.	.	.	.	.	.
.	16ff'\	.	.	.	.	.	.	.	.	.	.	.	.	.
8C\ 8E 8G 8c	16ee'\	3	.	.	.	.	.	.	.	.	.	.	.	.
.	16dd'\JJ	.	.	.	.	.	.	.	.	.	.	.	.	.
=100	=100	=100	=100	=100	=100	=100	=100	=100	=100	=100	=100	=100	=100	=100
!	!LO:TX:b:i:t=un poco marcato	!	!	!	!	!	!	!	!	!	!	!LO:TX:a:t=Jedna z Kapłanek. Una Sacerdotessa.	!	!
4C\ 4E 4G 4c	2.cc\	.	pp	4c/] 4g]	.	4e/] 4cc]	.	.	.	.	.	2.r	.	.
8C'/	.	.	.	8r	.	8r	.	.	.	.	.	.	.	.
8qD/	.	.	.	.	.	.	.	.	.	.	.	.	.	.
(4C^/	.	.	.	4r	.	4r	.	.	.	.	.	.	.	.
8BB/)	.	.	.	8r	.	8r	.	.	.	.	.	.	.	.
!!LO:LB:g=original	!	!	!	!	!	!	!	!	!	!	!	!	!	!
=101	=101	=101	=101	=101	=101	=101	=101	=101	=101	=101	=101	=101	=101	=101
8C/	2.e/ 2.cc	.	.	2.r	.	2.r	.	.	.	.	.	2.r	.	.
8r	.	.	.	.	.	.	.	.	.	.	.	.	.	.
8C'/	.	.	.	.	.	.	.	.	.	.	.	.	.	.
8qD/	.	.	.	.	.	.	.	.	.	.	.	.	.	.
(4C^/	.	.	.	.	.	.	.	.	.	.	.	.	.	.
8BB/)	.	.	.	.	.	.	.	.	.	.	.	.	.	.
=102	=102	=102	=102	=102	=102	=102	=102	=102	=102	=102	=102	=102	=102	=102
*	*^	*	*	*	*	*	*	*	*	*	*	*	*	*
8C/	2.dd/	2.d\ 2.f#X	.	.	2.r	.	2.r	.	.	.	.	.	2.r	.	.
8r	.	.	.	.	.	.	.	.	.	.	.	.	.	.	.
8C'/	.	.	.	.	.	.	.	.	.	.	.	.	.	.	.
8qD/	.	.	.	.	.	.	.	.	.	.	.	.	.	.	.
(4C^/	.	.	.	.	.	.	.	.	.	.	.	.	.	.	.
8BB/)	.	.	.	.	.	.	.	.	.	.	.	.	.	.	.
=103	=103	=103	=103	=103	=103	=103	=103	=103	=103	=103	=103	=103	=103	=103	=103
8C/	[4.a/	2.d\ 2.f#X	.	.	2.r	.	2.r	.	.	.	.	.	2.r	.	.
8r	.	.	.	.	.	.	.	.	.	.	.	.	.	.	.
8C'/	.	.	.	.	.	.	.	.	.	.	.	.	.	.	.
8qD/	.	.	.	.	.	.	.	.	.	.	.	.	.	.	.
(4C^/	(4a/]	.	.	.	.	.	.	.	.	.	.	.	.	.	.
8BB/)	8dd/)	.	.	.	.	.	.	.	.	.	.	.	.	.	.
*	*v	*v	*	*	*	*	*	*	*	*	*	*	*	*	*
=104	=104	=104	=104	=104	=104	=104	=104	=104	=104	=104	=104	=104	=104	=104
8BB/	[2.d/ [2.g [2.dd	.	.	2.r	.	2.r	.	.	.	.	.	2.r	.	.
8r	.	.	.	.	.	.	.	.	.	.	.	.	.	.
8BB'/	.	.	.	.	.	.	.	.	.	.	.	.	.	.
8qC/	.	.	.	.	.	.	.	.	.	.	.	.	.	.
(4BB^/	.	.	.	.	.	.	.	.	.	.	.	.	.	.
8AA#X/)	.	.	.	.	.	.	.	.	.	.	.	.	.	.
=105	=105	=105	=105	=105	=105	=105	=105	=105	=105	=105	=105	=105	=105	=105
*	*^	*	*	*	*	*	*	*	*	*	*	*	*	*
8BB/	4.dd/_	2.d\] 2.g]	.	.	2.r	.	2.r	.	.	.	.	.	4.g/	Ze	De-
8r	.	.	.	.	.	.	.	.	.	.	.	.	.	.	.
8BB'/	.	.	.	.	.	.	.	.	.	.	.	.	.	.	.
8qC/	.	.	.	.	.	.	.	.	.	.	.	.	.	.	.
(4BB^/	(4dd/_	.	.	.	.	.	.	.	.	.	.	.	4g/	snu	-ste
8BB-X/)	16dd/LL]	.	.	.	.	.	.	.	.	.	.	.	8g/	zbu-	dal
.	16cc#X/JJ)	.	.	.	.	.	.	.	.	.	.	.	.	.	.
*	*v	*v	*	*	*	*	*	*	*	*	*	*	*	*	*
!!LO:PB:g=original	!	!	!	!	!	!	!	!	!	!	!	!	!	!
=106	=106	=106	=106	=106	=106	=106	=106	=106	=106	=106	=106	=106	=106	=106
8AA/	2.c#X/ 2.g 2.ee	.	.	2.r	.	2.r	.	.	.	.	.	4.g/	-dzo-	son-
8r	.	.	.	.	.	.	.	.	.	.	.	.	.	.
8AA'/	.	.	.	.	.	.	.	.	.	.	.	.	.	.
8qBB-X/	.	.	.	.	.	.	.	.	.	.	.	.	.	.
(4AA/	.	.	.	.	.	.	.	.	.	.	.	8g/	-ne	-no,
.	.	.	.	.	.	.	.	.	.	.	.	8r	.	.
8GG#X/	.	.	.	.	.	.	.	.	.	.	.	8g/	tych	e
=107	=107	=107	=107	=107	=107	=107	=107	=107	=107	=107	=107	=107	=107	=107
8AA/)	[4.c#X/ [4.g [4.a	.	.	2.r	.	2.r	.	.	.	.	.	4.g/	miejsc	sa-
8r	.	.	.	.	.	.	.	.	.	.	.	.	.	.
8AA'/	.	.	.	.	.	.	.	.	.	.	.	.	.	.
!	!	!	!	!	!	!	!	!	!	!	!	!	!	!
8qBB-X/	.	.	.	.	.	.	.	.	.	.	.	.	.	.
!	!	!	!LO:DY:b=2	!	!	!	!	!	!	!	!	!	!	!
(4AA^/	8c#/L] 8g] 8a]	.	f <	.	.	.	.	.	.	.	.	4g/	świę-	-la-
.	(>16bn'/L	.	.	.	.	.	.	.	.	.	.	.	.	.
.	16cc#X'/	.	.	.	.	.	.	.	.	.	.	.	.	.
8AA-X/	16dd'/	.	.	.	.	.	.	.	.	.	.	8g/	-tych	-no a-
.	16ee'/JJ)	.	.	.	.	.	.	.	.	.	.	.	.	.
=108	=108	=108	=108	=108	=108	=108	=108	=108	=108	=108	=108	=108	=108	=108
8GG/)	[2.f\ [2.b [2.ff	.	[	2.r	.	2.r	.	.	.	.	.	4.a/	zio-	-ro-
8r	.	.	.	.	.	.	.	.	.	.	.	.	.	.
8GG'/	.	.	.	.	.	.	.	.	.	.	.	.	.	.
8qAA/	.	.	.	.	.	.	.	.	.	.	.	.	.	.
(4GG^/	.	.	.	.	.	.	.	.	.	.	.	4g/	-ła	-mi
8FF#X/)	.	.	.	.	.	.	.	.	.	.	.	8r	.	.
=109	=109	=109	=109	=109	=109	=109	=109	=109	=109	=109	=109	=109	=109	=109
8GG/	2.f\] 2.b] 2.ff]	.	.	2.r	.	2.r	.	.	.	.	.	4.dd\	wdzię-	l’er-
8r	.	.	.	.	.	.	.	.	.	.	.	.	.	.
8GG'/	.	.	.	.	.	.	.	.	.	.	.	.	.	.
8qAA/	.	.	.	.	.	.	.	.	.	.	.	.	.	.
(4GG^/	.	.	.	.	.	.	.	.	.	.	.	4b\	-czą	-be e
8GG/	.	.	.	.	.	.	.	.	.	.	.	8g/	się	le
=110	=110	=110	=110	=110	=110	=110	=110	=110	=110	=110	=110	=110	=110	=110
8FF/)	2.a\ 2.cc 2.ff	.	.	2.r	.	2.r	.	.	.	.	.	8cc\	wo-	pian-
8r	.	.	.	.	.	.	.	.	.	.	.	8cc\	-nią	-te
8FF'/	.	.	.	.	.	.	.	.	.	.	.	8r	.	.
!	!	!	!	!	!	!	!	!	!	!	!	!LO:TX:a:t=Neala.	!	!
*	*	*	*	*	*	*	*	*	*	*	*	*clefG2	*	*
(4FF^/	.	.	.	.	.	.	.	.	.	.	.	[4.ff\	Tak,	Sì,
8EE/	.	.	.	.	.	.	.	.	.	.	.	.	.	.
!!LO:LB:g=original	!	!	!	!	!	!	!	!	!	!	!	!	!	!
=111	=111	=111	=111	=111	=111	=111	=111	=111	=111	=111	=111	=111	=111	=111
*	*^	*	*	*	*	*	*	*	*	*	*	*	*	*
8FF/)	4a/	4.ryy	.	.	2.r	.	2.r	.	.	.	.	.	8ff\L]	.	.
8r	.	.	.	.	.	.	.	.	.	.	.	.	8ee\J	.	l’o-
8FF'/	(8a/ 8b	.	.	.	.	.	.	.	.	.	.	.	8dd\	to	-ra è
8qGG/	.	.	.	.	.	.	.	.	.	.	.	.	.	.	.
(4FF^/	4cc/	4.a\	.	.	.	.	.	.	.	.	.	.	8cc\L	mo-	di
.	.	.	.	.	.	.	.	.	.	.	.	.	8b\J	.	.
8EE-X/	8cc#X/)	.	.	.	.	.	.	.	.	.	.	.	8a/	-dłów	pre-
=112	=112	=112	=112	=112	=112	=112	=112	=112	=112	=112	=112	=112	=112	=112	=112
4DD/)	[>2.f#X/ [2.dd	8ryy	.	.	2.r	.	2.r	.	.	.	.	.	4a/	czas	-gar.
.	.	8ryy	.	.	.	.	.	.	.	.	.	.	.	.	.
2ryy	.	8c\	.	.	.	.	.	.	.	.	.	.	8r	.	.
.	.	8qd\	.	.	.	.	.	.	.	.	.	.	.	.	.
.	.	(4c\	.	.	.	.	.	.	.	.	.	.	4r	.	.
.	.	8B\)	.	.	.	.	.	.	.	.	.	.	8a/	o-	Per
*	*v	*v	*	*	*	*	*	*	*	*	*	*	*	*	*
=113	=113	=113	=113	=113	=113	=113	=113	=113	=113	=113	=113	=113	=113	=113
(4d\	4.f#/_ 4.dd_	.	.	2.r	.	2.r	.	.	.	.	.	[4.dd\	-dejdź-	po-
8c\	.	.	.	.	.	.	.	.	.	.	.	.	.	.
4A\)	4f#/] 4dd]	.	.	.	.	.	.	.	.	.	.	4dd\]	.	.
8F#X\	8d/ 8dd	.	.	.	.	.	.	.	.	.	.	8cc\	-cie	-co o
=114	=114	=114	=114	=114	=114	=114	=114	=114	=114	=114	=114	=114	=114	=114
*^	*^	*	*	*	*	*	*	*	*	*	*	*	*	*
(4.Fn/	2.GG\	(4ee/	(<2.B\	.	.	2.r	.	2.r	.	.	.	.	.	8cc\	sio-	suo-
.	.	.	.	.	.	.	.	.	.	.	.	.	.	8b\	-stry	-re
.	.	8dd/	.	.	.	.	.	.	.	.	.	.	.	8r	.	.
4D/	.	4b/	.	.	.	.	.	.	.	.	.	.	.	4r	.	.
8G/)	.	8g/)	.	.	.	.	.	.	.	.	.	.	.	8dd\	za	vo-
*	*	*v	*v	*	*	*	*	*	*	*	*	*	*	*	*	*
=115	=115	=115	=115	=115	=115	=115	=115	=115	=115	=115	=115	=115	=115	=115	=115
4G/	4GG\	[4.g\) (>[4.ee	.	.	2.r	.	2.r	.	.	.	.	.	4f/	chwi-	-glia-
8G#X/	8rAA	.	.	.	.	.	.	.	.	.	.	.	8f/	-lę	-te
4A/	4rAA	4g\] 4ee]	.	.	.	.	.	.	.	.	.	.	4f/	we-	mi
8B/	8rAA	8f/ 8dd)	.	.	.	.	.	.	.	.	.	.	8f/	-zwę	la-
!!LO:LB:g=original	!	!	!	!	!	!	!	!	!	!	!	!	!	!	!
=116	=116	=116	=116	=116	=116	=116	=116	=116	=116	=116	=116	=116	=116	=116	=116
*	*	*^	*	*	*	*	*	*	*	*	*	*	*	*	*
4c/	[2.C\	[2.cc/	4e\	.	.	2.r	.	2.r	.	.	.	.	.	4e/	was.	-sciar.
(8E/	.	.	(<8g\	.	.	.	.	.	.	.	.	.	.	8r	.	.
.	.	.	8qf/	.	.	.	.	.	.	.	.	.	.	.	.	.
4G/	.	.	4e\	.	.	.	.	.	.	.	.	.	.	4r	.	.
!	!	!	!	!	!	!	!	!	!	!	!	!	!	!LO:TX:a:t=Kapłanka. Una Sacerdotessa.	!	!
*	*	*	*	*	*	*	*	*	*	*	*	*	*	*clefG2	*	*
8F/)	.	.	8d\)	.	.	.	.	.	.	.	.	.	.	8g/	Skąd	Tur-
=117	=117	=117	=117	=117	=117	=117	=117	=117	=117	=117	=117	=117	=117	=117	=117	=117
4E/	2.C\_	2.cc/]	4c\	.	.	2.r	.	2.r	.	.	.	.	.	4.cc\	chmur-	-ba-
(8F/	.	.	(<8a\	.	.	.	.	.	.	.	.	.	.	.	.	.
.	.	.	8qa/	.	.	.	.	.	.	.	.	.	.	.	.	.
4E/	.	.	4g\	.	.	.	.	.	.	.	.	.	.	4g/	-ka	-ta
8A/)	.	.	8f\)	.	.	.	.	.	.	.	.	.	.	8f/	na	sa-
*	*	*v	*v	*	*	*	*	*	*	*	*	*	*	*	*	*
=118	=118	=118	=118	=118	=118	=118	=118	=118	=118	=118	=118	=118	=118	=118	=118
.	.	8qqe/	.	.	.	.	.	.	.	.	.	.	.	.	.
8G/	2.C\_	[2.c/ 2.cc	.	.	2.r	.	2.r	.	.	.	.	.	4.e/	czo-	-re-
8rG	.	.	.	.	.	.	.	.	.	.	.	.	.	.	.
8E/ 8G	.	.	.	.	.	.	.	.	.	.	.	.	.	.	.
8qG/	.	.	.	.	.	.	.	.	.	.	.	.	.	.	.
([<4D/ [4F	.	.	.	.	.	.	.	.	.	.	.	.	8g/	-le?	-sti?
.	.	.	.	.	.	.	.	.	.	.	.	.	8r	.	.
!	!	!	!	!	!	!	!	!	!	!	!	!	!LO:TX:a:t=Neala.	!	!
*	*	*	*	*	*	*	*	*	*	*	*	*	*clefG2	*	*
16D/LL] 16F]	.	.	.	.	.	.	.	.	.	.	.	.	8cc\	To	Oh
16C/JJ) 16E	.	.	.	.	.	.	.	.	.	.	.	.	.	.	.
=119	=119	=119	=119	=119	=119	=119	=119	=119	=119	=119	=119	=119	=119	=119	=119
4C/ 4E	2.C\_	2.c/]	.	.	2.r	.	2.r	.	.	.	.	.	4g/	nic!	no!
8F/ 8A	.	.	.	.	.	.	.	.	.	.	.	.	8r	.	.
8qA/	.	.	.	.	.	.	.	.	.	.	.	.	.	.	.
([<4E/ [4G	.	.	.	.	.	.	.	.	.	.	.	.	4r	.	.
16E/LL] 16G]	.	.	.	.	.	.	.	.	.	.	.	.	8e/	to	oh
16D/JJ) 16F	.	.	.	.	.	.	.	.	.	.	.	.	.	.	.
=120	=120	=120	=120	=120	=120	=120	=120	=120	=120	=120	=120	=120	=120	=120	=120
*	*	*^	*	*	*	*	*	*	*	*	*	*	*	*	*
4.E/	(4.C\]	[2.g/	4.e\	.	.	2.r	.	2.r	.	.	.	.	.	4g/	nic…	no!
.	.	.	.	.	.	.	.	.	.	.	.	.	.	8r	.	.
[4.G/	4.GG\	.	4.B\ 4.d 4.f	.	.	.	.	.	.	.	.	.	.	4r	.	.
.	.	.	.	.	.	.	.	.	.	.	.	.	.	8g/	za	Vuo’
!!LO:LB:g=original	!	!	!	!	!	!	!	!	!	!	!	!	!	!	!	!
=121	=121	=121	=121	=121	=121	=121	=121	=121	=121	=121	=121	=121	=121	=121	=121	=121
2.G/]	4.C\	2.g/]	4.c\ 4.e	.	.	2.r	.	2.r	.	.	.	.	.	4g/	chwi-	so-
.	.	.	.	.	.	.	.	.	.	.	.	.	.	8g/	-lę	-la
.	4.GG\)	.	4.B\ 4.d 4.f	.	.	.	.	.	.	.	.	.	.	4g/	we-	me-
.	.	.	.	.	.	.	.	.	.	.	.	.	.	8g/	-zwę	-di-
*v	*v	*	*	*	*	*	*	*	*	*	*	*	*	*	*	*
*	*v	*v	*	*	*	*	*	*	*	*	*	*	*	*	*
=122	=122	=122	=122	=122	=122	=122	=122	=122	=122	=122	=122	=122	=122	=122
!	!LO:TX:b:t=V-le.	!	!	!	!	!	!	!	!	!	!	!	!	!
!	!LO:TX:b:t=Ob.	!	!	!	!	!	!	!	!	!	!	!	!	!
4C/	2.e/ 2.cc	.	.	2.r	.	2.r	.	.	.	.	.	[4.e/	was.	-tar.
8c'\	.	.	.	.	.	.	.	.	.	.	.	.	.	.
8qd/	.	.	.	.	.	.	.	.	.	.	.	.	.	.
(4c^\	.	.	.	.	.	.	.	.	.	.	.	8e/]	.	.
.	.	.	.	.	.	.	.	.	.	.	.	8r	.	.
8B\)	.	.	.	.	.	.	.	.	.	.	.	8r	.	.
=123	=123	=123	=123	=123	=123	=123	=123	=123	=123	=123	=123	=123	=123	=123
*^	*	*	*	*	*	*	*	*	*	*	*	*	*	*
!	!	!	!	!	!	!	!	!	!	!	!	!	!LO:TX:b:t=(Kapłanki odchodzą)\n(Le Sacerdotesse si allontanano)	!	!
4c/ 4e	2.A\	(4.ee\	.	.	2.r	.	2.r	.	.	.	.	.	2.r	.	.
8c/	.	.	.	.	.	.	.	.	.	.	.	.	.	.	.
8qd/	.	.	.	.	.	.	.	.	.	.	.	.	.	.	.
(4c^/	.	4ff\	.	.	.	.	.	.	.	.	.	.	.	.	.
8B/)	.	8ee\)	.	.	.	.	.	.	.	.	.	.	.	.	.
=124	=124	=124	=124	=124	=124	=124	=124	=124	=124	=124	=124	=124	=124	=124	=124
*	*	*^	*	*	*	*	*	*	*	*	*	*	*	*	*
!	!	!LO:TX:b:t=V. I.	!	!	!	!	!	!	!	!	!	!	!	!	!	!
(4B^/	4.E\	2.gg/	4.g\	.	.	2.r	.	2.r	.	.	.	.	.	2.r	.	.
16c/LL	.	.	.	.	.	.	.	.	.	.	.	.	.	.	.	.
16B/JJ)	.	.	.	.	.	.	.	.	.	.	.	.	.	.	.	.
(8B/L	4.D\	.	4.f\	.	.	.	.	.	.	.	.	.	.	.	.	.
8A/	.	.	.	.	.	.	.	.	.	.	.	.	.	.	.	.
8G/J)	.	.	.	.	.	.	.	.	.	.	.	.	.	.	.	.
=125	=125	=125	=125	=125	=125	=125	=125	=125	=125	=125	=125	=125	=125	=125	=125	=125
.	.	(>8qg/	.	.	.	.	.	.	.	.	.	.	.	.	.	.
(4c/	4.C\ 4.G	(4gg\)	4.ryy	.	.	2.r	.	2.r	.	.	.	.	.	2.r	.	.
16d/LL	.	16ff\LL	.	.	.	.	.	.	.	.	.	.	.	.	.	.
16c/JJ)	.	16ee\JJ)	.	.	.	.	.	.	.	.	.	.	.	.	.	.
(4B/	4.G#X\	(4dd/	4.e\	.	.	.	.	.	.	.	.	.	.	.	.	.
8c/)	.	8cc/)	.	.	.	.	.	.	.	.	.	.	.	.	.	.
*v	*v	*	*	*	*	*	*	*	*	*	*	*	*	*	*	*
=126	=126	=126	=126	=126	=126	=126	=126	=126	=126	=126	=126	=126	=126	=126	=126
4.A\ 4.c#X	[2.aa/	4.gn\	.	.	2.r	.	2.r	.	.	.	.	.	2.r	.	.
4.D\ 4.A 4.f#X	.	4.ryy	.	.	.	.	.	.	.	.	.	.	.	.	.
!!LO:LB:g=original	!	!	!	!	!	!	!	!	!	!	!	!	!	!	!
=127	=127	=127	=127	=127	=127	=127	=127	=127	=127	=127	=127	=127	=127	=127	=127
4.G\ 4.B 4.fn	(>8aa/L]	4.ryy	.	.	2.r	.	2.r	.	.	.	.	.	2.r	.	.
.	8gg/)	.	.	.	.	.	.	.	.	.	.	.	.	.	.
.	8ff/J	.	.	.	.	.	.	.	.	.	.	.	.	.	.
4.C\ 4.G 4.c	(8ee/L	4.e\	.	.	.	.	.	.	.	.	.	.	.	.	.
.	8dd/)	.	.	.	.	.	.	.	.	.	.	.	.	.	.
.	8cc/J	.	.	.	.	.	.	.	.	.	.	.	.	.	.
*	*v	*v	*	*	*	*	*	*	*	*	*	*	*	*	*
=128	=128	=128	=128	=128	=128	=128	=128	=128	=128	=128	=128	=128	=128	=128
4.E\ 4.G#X 4.d	([2.ee\	.	.	2.r	.	2.r	.	.	.	.	.	2.r	.	.
4.A\ 4.c	.	.	.	.	.	.	.	.	.	.	.	.	.	.
=129	=129	=129	=129	=129	=129	=129	=129	=129	=129	=129	=129	=129	=129	=129
*	*^	*	*	*	*	*	*	*	*	*	*	*	*	*
4.D\ 4.F 4.A 4.c	8ee/L]	4rc	.	.	2.r	.	2.r	.	.	.	.	.	2.r	.	.
.	8dd/)	.	.	.	.	.	.	.	.	.	.	.	.	.	.
.	8cc/J	8rd	.	.	.	.	.	.	.	.	.	.	.	.	.
4.GG/ 4.F	(8b/L	4.d\	.	.	.	.	.	.	.	.	.	.	.	.	.
.	8a/)	.	.	.	.	.	.	.	.	.	.	.	.	.	.
.	8g/J	.	.	.	.	.	.	.	.	.	.	.	.	.	.
*	*v	*v	*	*	*	*	*	*	*	*	*	*	*	*	*
=130	=130	=130	=130	=130	=130	=130	=130	=130	=130	=130	=130	=130	=130	=130
[2.C\ [2.E	[2.c/ [2.e [2.g	.	.	2.r	.	2.r	.	.	.	.	.	2.r	.	.
=131	=131	=131	=131	=131	=131	=131	=131	=131	=131	=131	=131	=131	=131	=131
*	*^	*	*	*	*	*	*	*	*	*	*	*	*	*
4C\] 4E]	4c/] 4e] 4g]	4.ryy	.	.	2.r	.	2.r	.	.	.	.	.	2.r	.	.
8r	8ra	.	.	.	.	.	.	.	.	.	.	.	.	.	.
4.C\ 4.G 4.c	([4g/	4.e\	.	.	.	.	.	.	.	.	.	.	.	.	.
.	16g/LL]	.	.	.	.	.	.	.	.	.	.	.	.	.	.
.	16cc/JJ)	.	.	.	.	.	.	.	.	.	.	.	.	.	.
*	*v	*v	*	*	*	*	*	*	*	*	*	*	*	*	*
=132	=132	=132	=132	=132	=132	=132	=132	=132	=132	=132	=132	=132	=132	=132
[4.C\ [4.E [4.G	[4.c/ [4.cc	.	.	2.r	.	2.r	.	.	.	.	.	2.r	.	.
4C\] 4E] 4G]	4c/] 4cc]	.	.	.	.	.	.	.	.	.	.	.	.	.
8r	8r	.	.	.	.	.	.	.	.	.	.	.	.	.
=133	=133	=133	=133	=133	=133	=133	=133	=133	=133	=133	=133	=133	=133	=133
[4.C\ [4.E [4.G	[4.c/	.	.	2.r	.	2.r	.	.	.	.	.	2.r	.	.
4C\] 4E] 4G]	4c/]	.	.	.	.	.	.	.	.	.	.	.	.	.
8r	8r	.	.	.	.	.	.	.	.	.	.	.	.	.
==	==	==	==	==	==	==	==	==	==	==	==	==	==	==
*-	*-	*-	*-	*-	*-	*-	*-	*-	*-	*-	*-	*-	*-	*-
!!!system-decoration: [(s1,s2,s3)]{(s4,s5)}
!!!RDF**kern: > = above
!!!RDF**kern: < = below
!!!RDF**kern: N = linked
!!!ENC: Arkadiusz Malec
!!!END: 28-08-2022
!!!ENC: Natalia Wrzos
!!!END: 2022-10-01
!!!YEC: Copyright 2022 Narodowy Instytut Fryderyka Chopina (https://polishscores.org)
!!!YEM: License CC-BY-4.0 (https://creativecommons.org/licenses/by/4.0)
